!!!!SEGMENT: Wil1001c-Missa_Mente_tota-Credo
!!!id: Wil1001c
!!!AGN: Mass; Credo
!!!voices: 6
!!!OPR: Missa Mente tota
!!!COM: Adrian Willaert
!!!OTL: Credo
**kern	**text	**kern	**text	**kern	**text	**kern	**text	**kern	**text	**kern	**text
*part6	*part6	*part5	*part5	*part4	*part4	*part3	*part3	*part2	*part2	*part1	*part1
*staff6	*staff6	*staff5	*staff5	*staff4	*staff4	*staff3	*staff3	*staff2	*staff2	*staff1	*staff1
*I"Bassus	*	*I"Tenor II	*	*I"Tenor I	*	*I"Altus II	*	*I"Altus I	*	*I"Superius	*
*I'B	*	*I'T. II	*	*I'T. I	*	*I'A. II	*	*I'A. I	*	*I'S	*
*clefF4	*	*clefF4	*	*clefGv2	*	*clefG2	*	*clefG2	*	*clefG2	*
*k[b-]	*	*k[b-]	*	*k[b-]	*	*k[b-]	*	*k[b-]	*	*k[b-]	*
*d:	*	*d:	*	*d:	*	*d:	*	*d:	*	*d:	*
*M2/1	*	*M2/1	*	*M2/1	*	*M2/1	*	*M2/1	*	*M2/1	*
*met(C|)	*	*met(C|)	*	*met(C|)	*	*met(C|)	*	*met(C|)	*	*met(C|)	*
!!section: Patrem
!!!OMD: Patrem
=1	=1	=1	=1	=1	=1	=1	=1	=1	=1	=1	=1
!LO:TX:a:t=Canon&colon; bassus/tenor I at the fifth	!	!	!	!	!	!	!	!LO:TX:a:t=Canon&colon; altus I/superius at the fifth	!	!	!
0r	.	1G	Pa-	0r	.	1r	.	1g	Pa-	0r	.
.	.	[1B-y	.	.	.	[1d	Pa-	2g	-trem	.	.
.	.	.	.	.	.	.	.	2f	o-	.	.
=2	=2	=2	=2	=2	=2	=2	=2	=2	=2	=2	=2
0r	.	2B-]	.	0r	.	2d]	.	1g	-mni-	0r	.
.	.	4A	.	.	.	2e	.	.	.	.	.
.	.	4G	.	.	.	.	.	.	.	.	.
.	.	1d	.	.	.	1f	-trem	1a	-po-	.	.
=3	=3	=3	=3	=3	=3	=3	=3	=3	=3	=3	=3
0r	.	1.G	-trem	0r	.	2.g	o-	1.b-y	-ten-	1dd	Pa-
.	.	.	.	.	.	4f	.	.	.	.	.
.	.	.	.	.	.	2g	-mni-	.	.	2dd	-trem
.	.	2A	o-	.	.	2e	-po-	2a	.	2cc	o-
=4	=4	=4	=4	=4	=4	=4	=4	=4	=4	=4	=4
0r	.	2B-y	-mni-	0r	.	2d	-ten-	2g	.	1dd	-mni-
.	.	2B-y	-po-	.	.	2b-y	.	2f	.	.	.
.	.	1c	-ten-	.	.	2a	.	1e	.	1ee	-po-
.	.	.	.	.	.	2g	.	.	.	.	.
=5	=5	=5	=5	=5	=5	=5	=5	=5	=5	=5	=5
0r	.	1B-y	-tem,	0r	.	1b-y	.	1d	-tem,	1.ff	-ten-
.	.	1r	.	.	.	1a	-tem,	1d	fa-	.	.
.	.	.	.	.	.	.	.	.	.	2ee	.
=6	=6	=6	=6	=6	=6	=6	=6	=6	=6	=6	=6
0r	.	1r	.	0r	.	1r	.	1g	-cto-	2dd	.
.	.	.	.	.	.	.	.	.	.	2cc	.
.	.	1G	fa-	.	.	2r	.	1g	-rem	1b-y	.
.	.	.	.	.	.	2d	fa-	.	.	.	.
=7	=7	=7	=7	=7	=7	=7	=7	=7	=7	=7	=7
0r	.	2D	-cto-	0r	.	2d	-cto-	2.f	cae-	1a	-tem,
.	.	2D	-rem	.	.	2.f	-rem	.	.	.	.
.	.	.	.	.	.	.	.	4e	.	.	.
.	.	1F	cae-	.	.	.	.	2d	.	1a	fa-
.	.	.	.	.	.	4e	.	.	.	.	.
.	.	.	.	.	.	2f	.	2c	-li	.	.
=8	=8	=8	=8	=8	=8	=8	=8	=8	=8	=8	=8
0r	.	2G	-li	0r	.	2.d	cae-	4B-y	et	1dd	-cto-
.	.	.	.	.	.	.	.	4c	.	.	.
.	.	2.B-y	et	.	.	.	.	4d	.	.	.
.	.	.	.	.	.	4c	-li	4e	.	.	.
.	.	.	.	.	.	2d	et	2f	.	1dd	-rem
.	.	4A	.	.	.	.	.	.	.	.	.
.	.	2B-y	ter-	.	.	2B-y	ter-	2g	ter-	.	.
=9	=9	=9	=9	=9	=9	=9	=9	=9	=9	=9	=9
0r	.	1F	-rae,	0r	.	[0c	-rae,	2a	-rae,	2.cc	cae-
.	.	.	.	.	.	.	.	1f	vi-	.	.
.	.	.	.	.	.	.	.	.	.	4b-y	.
.	.	1c	vi-	.	.	.	.	.	.	2a	.
.	.	.	.	.	.	.	.	2e	.	2g	-li
=10	=10	=10	=10	=10	=10	=10	=10	=10	=10	=10	=10
0r	.	2.F	-si-	0r	.	1c]	.	1.f	-si-	4f	et
.	.	.	.	.	.	.	.	.	.	4g	.
.	.	.	.	.	.	.	.	.	.	4a	.
.	.	4G	-bi-	.	.	.	.	.	.	4b-y	.
.	.	2A	-li-	.	.	1r	.	.	.	2cc	.
.	.	2B-y	-um	.	.	.	.	4e	.	2dd	ter-
.	.	.	.	.	.	.	.	4d	.	.	.
=11	=11	=11	=11	=11	=11	=11	=11	=11	=11	=11	=11
0r	.	1c	o-	0r	.	1.g	vi-	2c	.	2ee	-rae,
.	.	.	.	.	.	.	.	2e	-bi-	1cc	vi-
.	.	1G	-mni-	.	.	.	.	1d	-li-	.	.
.	.	.	.	.	.	2g	-si-	.	.	2bnXi	.
=12	=12	=12	=12	=12	=12	=12	=12	=12	=12	=12	=12
0r	.	0A	-um,	0r	.	1e	-bi-	2.c	-um	1.cc	-si-
.	.	.	.	.	.	.	.	4d	.	.	.
.	.	.	.	.	.	1c	-li-	2e	.	.	.
.	.	.	.	.	.	.	.	2f	o-	4b-y	.
.	.	.	.	.	.	.	.	.	.	4a	.
=13	=13	=13	=13	=13	=13	=13	=13	=13	=13	=13	=13
0r	.	2r	.	0r	.	2c	-um	4e	.	2g	.
.	.	.	.	.	.	.	.	4c	.	.	.
.	.	2G	et	.	.	2.d	o-	1g	.	2b-y	-bi-
.	.	1d	in-	.	.	.	.	.	.	1a	-li-
.	.	.	.	.	.	4e	.	.	.	.	.
.	.	.	.	.	.	2f	-mni-	2f#i	-mni-	.	.
=14	=14	=14	=14	=14	=14	=14	=14	=14	=14	=14	=14
1G	Et	1B-y	-vi-	0r	.	2d	-um,	1g	-um.	2.g	-um
.	.	.	.	.	.	1b-y	et	.	.	.	.
.	.	.	.	.	.	.	.	.	.	4a	.
2G	in	2G	-si-	.	.	.	.	1r	.	2b-y	.
2F	u-	2A	-bi-	.	.	2a	in-	.	.	2cc	o-
=15	=15	=15	=15	=15	=15	=15	=15	=15	=15	=15	=15
1G	-num	1B-y	-li-	0r	.	2.g	-vi-	0r	.	4b-y	.
.	.	.	.	.	.	.	.	.	.	4g	.
.	.	.	.	.	.	.	.	.	.	1dd	.
.	.	.	.	.	.	4f	-si-	.	.	.	.
1A	Do-	1c	-um.	.	.	1e	-bi-	.	.	.	.
.	.	.	.	.	.	.	.	.	.	2cc	-mni-
=16	=16	=16	=16	=16	=16	=16	=16	=16	=16	=16	=16
1.B-y	.	2.G	Et	1d	Et	2d	-li-	0r	.	1dd	-um.
.	.	.	.	.	.	1g	-um.	.	.	.	.
.	.	4A	.	.	.	.	.	.	.	.	.
.	.	2B-y	in	2d	in	.	.	.	.	1r	.
2A	.	2c	u-	2c	u-	[2f	Et	.	.	.	.
=17	=17	=17	=17	=17	=17	=17	=17	=17	=17	=17	=17
2G	.	2B-y	-num	1d	-num	4f]	.	0r	.	0r	.
.	.	.	.	.	.	4e	.	.	.	.	.
2F	.	1A	Do-	.	.	1d	in	.	.	.	.
1E	-mi-	.	.	1e	Do-	.	.	.	.	.	.
.	.	2G	-mi-	.	.	2c#i	u-	.	.	.	.
=18	=18	=18	=18	=18	=18	=18	=18	=18	=18	=18	=18
1D	-num	0A	-num	1.f	.	1.d	-num	0r	.	0r	.
1D	Ie-	.	.	.	.	.	.	.	.	.	.
.	.	.	.	2e	.	2c	.	.	.	.	.
=19	=19	=19	=19	=19	=19	=19	=19	=19	=19	=19	=19
1G	-sum	1r	.	2d	.	2B-y	Do-	0r	.	0r	.
.	.	.	.	2c	.	4A	.	.	.	.	.
.	.	.	.	.	.	4G	.	.	.	.	.
1G	Chri-	2r	.	1B-y	-mi-	2.d	.	.	.	.	.
.	.	2B-y	Ie-	.	.	.	.	.	.	.	.
.	.	.	.	.	.	4e	-mi-	.	.	.	.
=20	=20	=20	=20	=20	=20	=20	=20	=20	=20	=20	=20
2.F	.	4c	-sum	1A	-num	1f	-num.	0r	.	0r	.
.	.	4B-y	.	.	.	.	.	.	.	.	.
.	.	4A	.	.	.	.	.	.	.	.	.
4E	.	4G	.	.	.	.	.	.	.	.	.
2D	.	2F	.	1A	Ie-	1r	.	.	.	.	.
2C	.	2E	.	.	.	.	.	.	.	.	.
=21	=21	=21	=21	=21	=21	=21	=21	=21	=21	=21	=21
4BB-y	-stum,	2.F	Chri-	1d	-sum	1r	.	0r	.	0r	.
4C	.	.	.	.	.	.	.	.	.	.	.
4D	.	.	.	.	.	.	.	.	.	.	.
4E	.	4E	.	.	.	.	.	.	.	.	.
2F	.	2D	.	1d	Chri-	2r	.	.	.	.	.
2G	Fi-	4C	.	.	.	2B-y	Fi-	.	.	.	.
.	.	4BB-y	.	.	.	.	.	.	.	.	.
=22	=22	=22	=22	=22	=22	=22	=22	=22	=22	=22	=22
2A	-li-	1F	-stum,	2.c	.	2.A	-li-	0r	.	0r	.
1F	-um	.	.	.	.	.	.	.	.	.	.
.	.	.	.	4B-y	.	4B-y	.	.	.	.	.
.	.	2r	.	2A	.	[1c	.	.	.	.	.
2E	.	2G	Fi-	2G	.	.	.	.	.	.	.
=23	=23	=23	=23	=23	=23	=23	=23	=23	=23	=23	=23
1.F	De-	2A	-li-	4F	-stum,	2c]	.	0r	.	0r	.
.	.	.	.	4G	.	.	.	.	.	.	.
.	.	2F	-um	4A	.	1A	-um	.	.	.	.
.	.	.	.	4B-y	.	.	.	.	.	.	.
.	.	2.A	.	2c	.	.	.	.	.	.	.
4E	.	.	.	2d	Fi-	4G	.	.	.	.	.
4D	.	4B-y	.	.	.	4F	.	.	.	.	.
=24	=24	=24	=24	=24	=24	=24	=24	=24	=24	=24	=24
2C	-i	1c	De-	2e	-li-	1G	.	0r	.	0r	.
2E	u-	.	.	1c	-um	.	.	.	.	.	.
1D	-ni-	1F	.	.	.	1d	De-	.	.	.	.
.	.	.	.	2B-y	.	.	.	.	.	.	.
=25	=25	=25	=25	=25	=25	=25	=25	=25	=25	=25	=25
2.C	-ge-	1G	-i	1.c	De-	1e	.	0r	.	0r	.
4D	.	.	.	.	.	.	.	.	.	.	.
2E	.	1r	.	.	.	1c	-i	.	.	.	.
2F	.	.	.	4B-y	.	.	.	.	.	.	.
.	.	.	.	4A	.	.	.	.	.	.	.
=26	=26	=26	=26	=26	=26	=26	=26	=26	=26	=26	=26
4E	.	0r	.	2G	-i	2r	.	2r	.	0r	.
4C	.	.	.	.	.	.	.	.	.	.	.
1G	.	.	.	2B-y	u-	2d	u-	2b-y	Fi-	.	.
.	.	.	.	1A	-ni-	2e	-ni-	1cc	-li-	.	.
2F	-ni-	.	.	.	.	2f	-ge-	.	.	.	.
=27	=27	=27	=27	=27	=27	=27	=27	=27	=27	=27	=27
1G	-tum.	0r	.	2.G	-ge-	2.d	.	2b-y	-um	0r	.
.	.	.	.	.	.	.	.	1g	De-	.	.
.	.	.	.	4A	.	4c	.	.	.	.	.
1r	.	.	.	2B-y	.	2d	.	.	.	.	.
.	.	.	.	2c	.	2e	-ni-	4f	-i	.	.
.	.	.	.	.	.	.	.	4e	.	.	.
=28	=28	=28	=28	=28	=28	=28	=28	=28	=28	=28	=28
0r	.	0r	.	4B-y	.	1f	-tum,	4d	.	2r	.
.	.	.	.	4G	.	.	.	4e	.	.	.
.	.	.	.	1d	.	.	.	4f	.	2ff	Fi-
.	.	.	.	.	.	.	.	4d	.	.	.
.	.	.	.	.	.	1r	.	1e	u-	1gg	-li-
.	.	.	.	2c#i	-ni-	.	.	.	.	.	.
=29	=29	=29	=29	=29	=29	=29	=29	=29	=29	=29	=29
0r	.	0r	.	1d	-tum.	2.a	[Fi-	2.d	-ni-	2ff	-um
.	.	.	.	.	.	.	.	.	.	1dd	De-
.	.	.	.	.	.	4g	-li-	4e	.	.	.
.	.	.	.	1r	.	2a	-um	2f	-ge-	.	.
.	.	.	.	.	.	2b-y	De-	2g	-ni-	4cc	.
.	.	.	.	.	.	.	.	.	.	4b-y	.
=30	=30	=30	=30	=30	=30	=30	=30	=30	=30	=30	=30
0r	.	0r	.	0r	.	2cc	-i	1f	-tum.	4a	.
.	.	.	.	.	.	.	.	.	.	4b-y	.
.	.	.	.	.	.	2a	u-	.	.	4cc	.
.	.	.	.	.	.	.	.	.	.	4a	.
.	.	.	.	.	.	1g	-ni-	2r	.	1b-y	-i
.	.	.	.	.	.	.	.	2g	Et	.	.
=31	=31	=31	=31	=31	=31	=31	=31	=31	=31	=31	=31
0r	.	2r	.	0r	.	1.f	-ge-	4d	ex	2.a	u-
.	.	.	.	.	.	.	.	4e	.	.	.
.	.	2F	Et	.	.	.	.	4f	.	.	.
.	.	.	.	.	.	.	.	4g	.	4b-y	-ni-
.	.	2F	ex	.	.	.	.	2a	.	2cc	-ge-
.	.	2B-y	Pa-	.	.	2d	-ni-	4f	Pa-	2dd	-ni-
.	.	.	.	.	.	.	.	4g	.	.	.
=32	=32	=32	=32	=32	=32	=32	=32	=32	=32	=32	=32
0r	.	1A	.	0r	.	2.e	-tum].	4a	.	1cc	-tum.
.	.	.	.	.	.	.	.	4b-y	.	.	.
.	.	.	.	.	.	.	.	1cc	.	.	.
.	.	.	.	.	.	4f	.	.	.	.	.
.	.	1G	.	.	.	1g	.	.	.	2r	.
.	.	.	.	.	.	.	.	2bnXi	.	2dd	Et
=33	=33	=33	=33	=33	=33	=33	=33	=33	=33	=33	=33
0r	.	2F	-tre	0r	.	2r	.	1.cc	-tre	4a	ex
.	.	.	.	.	.	.	.	.	.	4b-y	.
.	.	2.A	na-	.	.	2c	Et	.	.	4cc	.
.	.	.	.	.	.	.	.	.	.	4dd	.
.	.	.	.	.	.	2c	ex	.	.	2ee	.
.	.	4G	.	.	.	.	.	.	.	.	.
.	.	4A	.	.	.	2f	Pa-	2cc	na-	4cc	Pa-
.	.	4B-y	.	.	.	.	.	.	.	4dd	.
=34	=34	=34	=34	=34	=34	=34	=34	=34	=34	=34	=34
0r	.	1c	-tum,	0r	.	1e	.	4cc	-tum	4ee	.
.	.	.	.	.	.	.	.	4b-y	.	4ff	.
.	.	.	.	.	.	.	.	4a	.	1gg	.
.	.	.	.	.	.	.	.	4g	.	.	.
.	.	1r	.	.	.	1d	-tre	1a	.	.	.
.	.	.	.	.	.	.	.	.	.	2ff#i	.
=35	=35	=35	=35	=35	=35	=35	=35	=35	=35	=35	=35
0r	.	1r	.	0r	.	2e	na-	2g	an-	1.gg	-tre
.	.	.	.	.	.	4d	.	1cc	.	.	.
.	.	.	.	.	.	4c	.	.	.	.	.
.	.	1G	[et	.	.	1d	-tum	.	.	.	.
.	.	.	.	.	.	.	.	2bnXi	.	2gg	na-
=36	=36	=36	=36	=36	=36	=36	=36	=36	=36	=36	=36
0r	.	1.c	ex	0r	.	2.e	an-	1.cc	-te	4gg	-tum
.	.	.	.	.	.	.	.	.	.	4ff	.
.	.	.	.	.	.	.	.	.	.	4ee	.
.	.	.	.	.	.	4f	.	.	.	4dd	.
.	.	.	.	.	.	2g	.	.	.	1ee	.
.	.	2c	Pa-	.	.	2e	-te	2a	.	.	.
=37	=37	=37	=37	=37	=37	=37	=37	=37	=37	=37	=37
0r	.	2B-y	.	0r	.	2f	o-	2b-y	o-	2dd	an-
.	.	2B-y	-tre	.	.	4e	.	2g	-mni-	1gg	.
.	.	.	.	.	.	4d	.	.	.	.	.
.	.	2c	na-	.	.	2e	.	1a	-a	.	.
.	.	2d	.	.	.	2f	.	.	.	2ff	.
=38	=38	=38	=38	=38	=38	=38	=38	=38	=38	=38	=38
0r	.	2B-y	-tum]	0r	.	2d	.	2g	sae-	1.gg	-te
.	.	2c	.	.	.	2g	.	1e	.	.	.
.	.	2G	an-	.	.	2b-y	.	.	.	.	.
.	.	2A	.	.	.	2cc	-mni-	4d	.	2ee	.
.	.	.	.	.	.	.	.	4c	-cu-	.	.
=39	=39	=39	=39	=39	=39	=39	=39	=39	=39	=39	=39
2r	.	2F	-te	0r	.	2a	-a	1d	-la.	2ff	o-
2B-y	De-	2G	.	.	.	2b-y	.	.	.	2dd	-mni-
1c	-um	4C	o-	.	.	2.g	sae-	1r	.	1ee	-a
.	.	4D	.	.	.	.	.	.	.	.	.
.	.	4E	.	.	.	.	.	.	.	.	.
.	.	4F	.	.	.	4a	.	.	.	.	.
=40	=40	=40	=40	=40	=40	=40	=40	=40	=40	=40	=40
2B-y	de	2.G	.	0r	.	1b-y	.	2.d	De-	2dd	sae-
1G	De-	.	.	.	.	.	.	.	.	1b-y	.
.	.	4A	.	.	.	.	.	4c	.	.	.
.	.	2B-y	.	.	.	1g	-cu-	2d	.	.	.
4F	.	2c	-mni-	.	.	.	.	2e	-um	4a	.
4E	.	.	.	.	.	.	.	.	.	4g	-cu-
=41	=41	=41	=41	=41	=41	=41	=41	=41	=41	=41	=41
4D	.	2F	-a	2r	.	1f	-la.	2f	de	1a	-la.
4E	.	.	.	.	.	.	.	.	.	.	.
4F	.	1A	sae-	2f	De-	.	.	1d	De-	.	.
4D	.	.	.	.	.	.	.	.	.	.	.
1E	.	.	.	1g	-um	1r	.	.	.	1r	.
.	.	2G	-cu-	.	.	.	.	2c#i	.	.	.
=42	=42	=42	=42	=42	=42	=42	=42	=42	=42	=42	=42
2.D	.	1A	-la.	2f	de	0r	.	0d	-o.	2.a	De-
.	.	.	.	1d	De-	.	.	.	.	.	.
4E	.	.	.	.	.	.	.	.	.	4g	.
2F	.	1r	.	.	.	.	.	.	.	2a	-um
2G	.	.	.	4c	-o,	.	.	.	.	2b-y	de
.	.	.	.	4B-y	.	.	.	.	.	.	.
=43	=43	=43	=43	=43	=43	=43	=43	=43	=43	=43	=43
1F	-o,	0r	.	4A	.	2r	.	0r	.	2cc	De-
.	.	.	.	4B-y	.	.	.	.	.	.	.
.	.	.	.	4c	.	2f	Lu-	.	.	1a	.
.	.	.	.	4A	.	.	.	.	.	.	.
2r	.	.	.	1B-y	lu-	2.d	-men	.	.	.	.
2G	lu-	.	.	.	.	.	.	.	.	2g	.
.	.	.	.	.	.	4e	.	.	.	.	.
=44	=44	=44	=44	=44	=44	=44	=44	=44	=44	=44	=44
4D	-men	0r	.	2.A	-men	1f	.	0r	.	0a	-o.
4E	.	.	.	.	.	.	.	.	.	.	.
4F	.	.	.	.	.	.	.	.	.	.	.
4G	.	.	.	4B-y	de	.	.	.	.	.	.
2A	de	.	.	2c	lu-	2e	de	.	.	.	.
4F	lu-	.	.	2d	-mi-	[2f	lu-	.	.	.	.
4G	.	.	.	.	.	.	.	.	.	.	.
=45	=45	=45	=45	=45	=45	=45	=45	=45	=45	=45	=45
4A	.	0r	.	1c	-ne,	4f]	.	0r	.	0r	.
4B-y	.	.	.	.	.	4g	.	.	.	.	.
1c	.	.	.	.	.	2e	.	.	.	.	.
.	.	.	.	2r	.	1d	-mi-	.	.	.	.
2BnXi	-mi-	.	.	2d	[lu-	.	.	.	.	.	.
=46	=46	=46	=46	=46	=46	=46	=46	=46	=46	=46	=46
1.c	-ne,	1F	Lu-	4A	-men	1c	-ne,	0r	.	0r	.
.	.	.	.	4B-y	.	.	.	.	.	.	.
.	.	.	.	4c	.	.	.	.	.	.	.
.	.	.	.	4d	.	.	.	.	.	.	.
.	.	2E	-men	2e	de	1r	.	.	.	.	.
2c	De-	2F	de	4c	lu-	.	.	.	.	.	.
.	.	.	.	4d	.	.	.	.	.	.	.
=47	=47	=47	=47	=47	=47	=47	=47	=47	=47	=47	=47
4c	-um	2C	lu-	4e	.	0r	.	0r	.	0r	.
4B-y	.	.	.	4f	.	.	.	.	.	.	.
4A	.	2E	.	1g	.	.	.	.	.	.	.
4G	.	.	.	.	.	.	.	.	.	.	.
1A	ve-	4D	.	.	.	.	.	.	.	.	.
.	.	4E	.	.	.	.	.	.	.	.	.
.	.	4F	.	2f#i	-mi-	.	.	.	.	.	.
.	.	4D	.	.	.	.	.	.	.	.	.
=48	=48	=48	=48	=48	=48	=48	=48	=48	=48	=48	=48
2G	-rum	2.E	.	1.g	-ne],	1r	.	0r	.	0r	.
1c	de	.	.	.	.	.	.	.	.	.	.
.	.	4F	.	.	.	.	.	.	.	.	.
.	.	1G	.	.	.	2r	.	.	.	.	.
2B-y	.	.	.	2g	De-	2d	De-	.	.	.	.
=49	=49	=49	=49	=49	=49	=49	=49	=49	=49	=49	=49
1.c	De-	0C	-mi-	4g	-um	2.e	-um	0r	.	0r	.
.	.	.	.	4f	.	.	.	.	.	.	.
.	.	.	.	4e	.	.	.	.	.	.	.
.	.	.	.	4d	.	4f	.	.	.	.	.
.	.	.	.	1e	.	2g	ve-	.	.	.	.
2A	.	.	.	.	.	2c	-rum	.	.	.	.
=50	=50	=50	=50	=50	=50	=50	=50	=50	=50	=50	=50
2B-y	.	1G	-ne,	2d	de	1d	de	0r	.	0r	.
2G	-o	.	.	1g	De-	.	.	.	.	.	.
1A	ve-	1D	.	.	.	2.d	De-	.	.	.	.
.	.	.	.	2f#i	-o	.	.	.	.	.	.
.	.	.	.	.	.	4c	.	.	.	.	.
=51	=51	=51	=51	=51	=51	=51	=51	=51	=51	=51	=51
2G	.	0r	.	1.g	ve-	4B-y	.	0r	.	0r	.
.	.	.	.	.	.	4A	.	.	.	.	.
1E	.	.	.	.	.	2c	.	.	.	.	.
.	.	.	.	.	.	2G	-o	.	.	.	.
4D	.	.	.	2e	.	[2c	ve-	.	.	.	.
4C	.	.	.	.	.	.	.	.	.	.	.
=52	=52	=52	=52	=52	=52	=52	=52	=52	=52	=52	=52
1D	-ro.	2r	.	2f	.	4c]	.	0r	.	0r	.
.	.	.	.	.	.	4B-y	.	.	.	.	.
.	.	2BB-y	De-	2d	.	1B-y	.	.	.	.	.
1r	.	2C	-um	1e	.	.	.	.	.	.	.
.	.	2C	ve-	.	.	2A	.	.	.	.	.
=53	=53	=53	=53	=53	=53	=53	=53	=53	=53	=53	=53
2.D	Ge-	4BB-y	-rum	2d	.	1B-y	-ro.	0r	.	0r	.
.	.	4C	.	.	.	.	.	.	.	.	.
.	.	4D	.	1B-y	.	.	.	.	.	.	.
4C	-ni-	4E	.	.	.	.	.	.	.	.	.
2D	-tum,	2F	.	.	.	1r	.	.	.	.	.
2E	non	2G	de	4A	.	.	.	.	.	.	.
.	.	.	.	4G	.	.	.	.	.	.	.
=54	=54	=54	=54	=54	=54	=54	=54	=54	=54	=54	=54
2F	fa-	1D	De-	1A	-ro.	2r	.	2r	.	0r	.
1D	.	.	.	.	.	2A	Ge-	1f	Ge-	.	.
.	.	1G	-o	1r	.	2B-y	.	.	.	.	.
2C	.	.	.	.	.	2c	.	2e	-ni-	.	.
=55	=55	=55	=55	=55	=55	=55	=55	=55	=55	=55	=55
0D	-ctum:	2.F	ve-	2.A	Ge-	2A	.	1.f	-tum,	0r	.
.	.	.	.	.	.	2.d	.	.	.	.	.
.	.	4E	.	4G	-ni-	.	.	.	.	.	.
.	.	1D	.	2A	-tum	.	.	.	.	.	.
.	.	.	.	.	.	4c	.	.	.	.	.
.	.	.	.	2B-y	non	2d	-ni-	4e	.	.	.
.	.	.	.	.	.	.	.	4d	.	.	.
=56	=56	=56	=56	=56	=56	=56	=56	=56	=56	=56	=56
0r	.	1C	-ro.	2c	fa-	2G	-tum,	2e	.	2r	.
.	.	.	.	1A	.	2e	non	4c	non	1cc	Ge-
.	.	.	.	.	.	.	.	4d	.	.	.
.	.	1r	.	.	.	2c	fa-	4e	.	.	.
.	.	.	.	.	.	.	.	4f	.	.	.
.	.	.	.	2G	.	[2e	.	2g	.	2b-y	-ni-
=57	=57	=57	=57	=57	=57	=57	=57	=57	=57	=57	=57
0r	.	1r	.	0A	-ctum.	4e]	.	2.c	fa-	1.cc	-tum,
.	.	.	.	.	.	4d	.	.	.	.	.
.	.	.	.	.	.	2f	.	.	.	.	.
.	.	.	.	.	.	.	.	4d	.	.	.
.	.	1c	Ge-	.	.	2e	.	2e	.	.	.
.	.	.	.	.	.	2c	.	2f	.	4b-y	.
.	.	.	.	.	.	.	.	.	.	4a	.
=58	=58	=58	=58	=58	=58	=58	=58	=58	=58	=58	=58
0r	.	2G	-ni-	0r	.	2d	.	1g	-ctum,	2b-y	.
.	.	2c	.	.	.	2e	.	.	.	4g	non
.	.	.	.	.	.	.	.	.	.	4a	.
.	.	4B-y	.	.	.	1f	-ctum,	2r	.	4b-y	.
.	.	4A	.	.	.	.	.	.	.	4cc	.
.	.	2B-y	.	.	.	.	.	2d	con-	2dd	.
=59	=59	=59	=59	=59	=59	=59	=59	=59	=59	=59	=59
0r	.	1c	-tum,	0r	.	2r	.	2e	-sub-	2.g	fa-
.	.	.	.	.	.	2e	con-	1g	-stan-	.	.
.	.	.	.	.	.	.	.	.	.	4a	.
.	.	2G	non	.	.	2d	-sub-	.	.	2b-y	.
.	.	2A	.	.	.	2c	-stan-	4f	.	2cc	.
.	.	.	.	.	.	.	.	4e	-ti-	.	.
=60	=60	=60	=60	=60	=60	=60	=60	=60	=60	=60	=60
0r	.	1.B-y	fa-	0r	.	2.f	-ti-	2.d	-a-	1dd	-ctum,
.	.	.	.	.	.	4e	-a-	4e	.	.	.
.	.	.	.	.	.	2d	-lem	1f	.	2r	.
.	.	2A	.	.	.	2c	Pa-	.	.	2a	con-
=61	=61	=61	=61	=61	=61	=61	=61	=61	=61	=61	=61
0r	.	2.G	.	0r	.	[0d	-tri:	0B-y	-lem	2b-y	-sub-
.	.	.	.	.	.	.	.	.	.	1dd	-stan-
.	.	4F	.	.	.	.	.	.	.	.	.
.	.	1G	-ctum,	.	.	.	.	.	.	.	.
.	.	.	.	.	.	.	.	.	.	4cc	.
.	.	.	.	.	.	.	.	.	.	4b-y	-ti-
=62	=62	=62	=62	=62	=62	=62	=62	=62	=62	=62	=62
0r	.	1r	.	0r	.	1d]	.	1.f	Pa-	2.a	-a-
.	.	.	.	.	.	.	.	.	.	4b-y	.
.	.	1A	con-	.	.	2r	.	.	.	1cc	.
.	.	.	.	.	.	2c	per	2e	.	.	.
=63	=63	=63	=63	=63	=63	=63	=63	=63	=63	=63	=63
0r	.	1.B-y	-sub-	0r	.	2d	.	2.d	.	0f	-lem
.	.	.	.	.	.	2B-y	.	.	.	.	.
.	.	.	.	.	.	.	.	4c	.	.	.
.	.	.	.	.	.	1d	quem	2B-y	.	.	.
.	.	2B-y	-stan-	.	.	.	.	[2f	.	.	.
=64	=64	=64	=64	=64	=64	=64	=64	=64	=64	=64	=64
0r	.	1F	-ti-	0r	.	2c	.	2f]	.	1.cc	Pa-
.	.	.	.	.	.	2A	.	4e	.	.	.
.	.	.	.	.	.	.	.	4d	.	.	.
.	.	1G	-a-	.	.	1B-y	o-	1e	.	.	.
.	.	.	.	.	.	.	.	.	.	2b-y	.
=65	=65	=65	=65	=65	=65	=65	=65	=65	=65	=65	=65
0r	.	2F	-lem	0r	.	1c	-mni-	1f	-tri,	2.a	.
.	.	2A	.	.	.	.	.	.	.	.	.
.	.	.	.	.	.	.	.	.	.	4g	.
.	.	2B-y	Pa-	.	.	2d	-a	2r	.	2f	.
.	.	[2F	-tri:	.	.	2c	.	[2f	[Pa-	[2cc	.
=66	=66	=66	=66	=66	=66	=66	=66	=66	=66	=66	=66
0r	.	4F]	.	0r	.	1f	fa-	4f]	.	2cc]	.
.	.	4G	.	.	.	.	.	4e	.	.	.
.	.	2A	.	.	.	.	.	4d	.	4b-y	.
.	.	.	.	.	.	.	.	4c	.	4a	.
.	.	2.G	per	.	.	[1g	.	1d	.	1b-y	.
.	.	4F	.	.	.	.	.	.	.	.	.
=67	=67	=67	=67	=67	=67	=67	=67	=67	=67	=67	=67
2r	.	4E	.	0r	.	2g]	.	[0c	-tri].	1cc	-tri,
.	.	4D	.	.	.	.	.	.	.	.	.
1F	per	2F	quem	.	.	1a	.	.	.	.	.
.	.	2C	o-	.	.	.	.	.	.	2r	.
2E	.	2c	-mni-	.	.	2g	.	.	.	[2cc	[Pa-
=68	=68	=68	=68	=68	=68	=68	=68	=68	=68	=68	=68
1.F	quem	2.A	-a	0r	.	1a	.	1c]	.	4cc]	.
.	.	.	.	.	.	.	.	.	.	4b-y	.
.	.	.	.	.	.	.	.	.	.	4a	.
.	.	4B-y	.	.	.	.	.	.	.	4g	.
.	.	2c	fa-	.	.	1f	-cta	1r	.	1a	.
4E	.	2d	-cta	.	.	.	.	.	.	.	.
4D	.	.	.	.	.	.	.	.	.	.	.
=69	=69	=69	=69	=69	=69	=69	=69	=69	=69	=69	=69
2E	o-	[0G	sunt.	2r	.	2g	sunt.	0r	.	[0g	-tri].
4C	-mni-	.	.	1c	Per	1e	Qui	.	.	.	.
4D	.	.	.	.	.	.	.	.	.	.	.
4E	.	.	.	.	.	.	.	.	.	.	.
4F	.	.	.	.	.	.	.	.	.	.	.
2G	-a	.	.	2B-y	.	2d	.	.	.	.	.
=70	=70	=70	=70	=70	=70	=70	=70	=70	=70	=70	=70
2.C	fa-	1G]	.	1.c	quem	2.e	pro-	0r	.	1g]	.
4D	.	.	.	.	.	4f	.	.	.	.	.
2E	.	1r	.	.	.	2g	.	.	.	1r	.
2F	-cta	.	.	4B-y	.	2a	.	.	.	.	.
.	.	.	.	4A	.	.	.	.	.	.	.
=71	=71	=71	=71	=71	=71	=71	=71	=71	=71	=71	=71
1G	sunt.	2r	.	2B-y	o-	2d	-pter	0d	Qui	0r	.
.	.	2B-y	[Qui	4G	-mni-	1g	nos	.	.	.	.
.	.	.	.	4A	.	.	.	.	.	.	.
2r	.	2G	pro-	4B-y	.	.	.	.	.	.	.
.	.	.	.	4c	.	.	.	.	.	.	.
2D	Qui	2A	.	2d	-a	2f	.	.	.	.	.
=72	=72	=72	=72	=72	=72	=72	=72	=72	=72	=72	=72
2E	pro-	2c	-pter	2.G	fa-	2e	.	1g	pro-	0r	.
1G	-pter	1B-y	nos	.	.	2d	.	.	.	.	.
.	.	.	.	4A	.	.	.	.	.	.	.
.	.	.	.	2B-y	.	2d	ho-	1g	-pter	.	.
4F	.	4A	.	2c	-cta	2e	-mi-	.	.	.	.
4E	.	4G	.	.	.	.	.	.	.	.	.
=73	=73	=73	=73	=73	=73	=73	=73	=73	=73	=73	=73
2.D	nos	1.A	ho-	1d	sunt.	[0f	-nes,	2.f	nos	0a	Qui
4E	.	.	.	.	.	.	.	4e	.	.	.
1F	.	.	.	2r	.	.	.	2d	.	.	.
.	.	2F	-mi-	2A	Qui	.	.	2c	.	.	.
=74	=74	=74	=74	=74	=74	=74	=74	=74	=74	=74	=74
0BB-y	.	0F	-nes,	2B-y	pro-	0f]	.	0B-y	.	1dd	pro-
.	.	.	.	1d	-pter	.	.	.	.	.	.
.	.	.	.	.	.	.	.	.	.	1dd	-pter
.	.	.	.	4c	.	.	.	.	.	.	.
.	.	.	.	4B-y	.	.	.	.	.	.	.
=75	=75	=75	=75	=75	=75	=75	=75	=75	=75	=75	=75
1.F	ho-	2r	.	2.A	nos	0r	.	1c	ho-	2.cc	nos
.	.	2A	qui	.	.	.	.	.	.	.	.
.	.	.	.	4B-y	.	.	.	.	.	4b-y	.
.	.	2F	pro-	1c	.	.	.	1c	-mi-	2a	.
2E	.	2G	-pter	.	.	.	.	.	.	2g	.
=76	=76	=76	=76	=76	=76	=76	=76	=76	=76	=76	=76
2.D	.	2A	nos	0F	.	0r	.	0d	-nes,	0f	.
.	.	2.F	ho-	.	.	.	.	.	.	.	.
4C	.	.	.	.	.	.	.	.	.	.	.
2BB-y	.	.	.	.	.	.	.	.	.	.	.
.	.	4E	.	.	.	.	.	.	.	.	.
[2F	.	2D	-mi-	.	.	.	.	.	.	.	.
=77	=77	=77	=77	=77	=77	=77	=77	=77	=77	=77	=77
2F]	.	0C	-nes],	1.c	ho-	0r	.	0r	.	1g	ho-
4E	.	.	.	.	.	.	.	.	.	.	.
4D	.	.	.	.	.	.	.	.	.	.	.
1E	-mi-	.	.	.	.	.	.	.	.	1g	-mi-
.	.	.	.	2B-y	.	.	.	.	.	.	.
=78	=78	=78	=78	=78	=78	=78	=78	=78	=78	=78	=78
1F	-nes,	2r	.	2.A	.	0r	.	1r	.	0a	-nes,
.	.	2.c	qui	.	.	.	.	.	.	.	.
.	.	.	.	4G	.	.	.	.	.	.	.
2r	.	.	.	2F	.	.	.	2r	.	.	.
.	.	4B-y	.	.	.	.	.	.	.	.	.
[2F	[ho-	4A	.	[2c	.	.	.	2c	et	.	.
.	.	4G	.	.	.	.	.	.	.	.	.
=79	=79	=79	=79	=79	=79	=79	=79	=79	=79	=79	=79
4F]	.	1A	.	2c]	.	0r	.	1f	pro-	0r	.
4E	.	.	.	.	.	.	.	.	.	.	.
4D	.	.	.	4B-y	.	.	.	.	.	.	.
4C	.	.	.	4A	.	.	.	.	.	.	.
1D	-mi-	2.F	pro-	1B-y	-mi-	.	.	1f	-pter	.	.
.	.	4G	.	.	.	.	.	.	.	.	.
=80	=80	=80	=80	=80	=80	=80	=80	=80	=80	=80	=80
[0C	-nes],	2A	-pter	1c	-nes,	2r	.	0e	no-	1r	.
.	.	2G	nos	.	.	2.g	et	.	.	.	.
.	.	2.c	ho-	2r	.	.	.	.	.	2r	.
.	.	.	.	.	.	4f	.	.	.	.	.
.	.	.	.	[2c	[ho-	4e	.	.	.	2g	et
.	.	4B-y	.	.	.	4d	.	.	.	.	.
=81	=81	=81	=81	=81	=81	=81	=81	=81	=81	=81	=81
1C]	.	4A	.	4c]	.	1e	pro-	0c	-stram	1cc	pro-
.	.	4G	.	4B-y	.	.	.	.	.	.	.
.	.	2c	.	4A	.	.	.	.	.	.	.
.	.	.	.	4G	.	.	.	.	.	.	.
1r	.	1F	.	1A	-mi-	1f	-pter	.	.	1cc	-pter
=82	=82	=82	=82	=82	=82	=82	=82	=82	=82	=82	=82
0r	.	2.B-y	.	[0G	-nes],	1d	no-	2.g	sa-	0b-y	no-
.	.	4c	.	.	.	.	.	4a	.	.	.
.	.	2d	.	.	.	2.g	-stram	2b-y	.	.	.
.	.	[2B-y	.	.	.	.	.	[2g	.	.	.
.	.	.	.	.	.	4f	.	.	.	.	.
=83	=83	=83	=83	=83	=83	=83	=83	=83	=83	=83	=83
0r	.	4B-]	.	1G]	.	4e	.	4g]	.	0g	-stram
.	.	4A	.	.	.	4d	.	4f	.	.	.
.	.	2B-y	.	.	.	1g	sa-	4e	.	.	.
.	.	.	.	.	.	.	.	4d	.	.	.
.	.	1c	.	1r	.	.	.	1e-X	-lu-	.	.
.	.	.	.	.	.	4f	-lu-	.	.	.	.
.	.	.	.	.	.	4e	.	.	.	.	.
=84	=84	=84	=84	=84	=84	=84	=84	=84	=84	=84	=84
0D	et	0A	-mi-	0r	.	2f	-tem	0d	-tem	2.dd	sa-
.	.	.	.	.	.	2.a	de-	.	.	.	.
.	.	.	.	.	.	.	.	.	.	4ee	.
.	.	.	.	.	.	.	.	.	.	2ff	.
.	.	.	.	.	.	4g	.	.	.	.	.
.	.	.	.	.	.	4f	.	.	.	[2dd	-lu-
.	.	.	.	.	.	4e	.	.	.	.	.
=85	=85	=85	=85	=85	=85	=85	=85	=85	=85	=85	=85
1G	pro-	0B-y	.	0r	.	2.d	-scen-	1r	.	4dd]	.
.	.	.	.	.	.	.	.	.	.	4cc	.
.	.	.	.	.	.	.	.	.	.	4b-y	.
.	.	.	.	.	.	4c	.	.	.	4a	.
1G	-pter	.	.	.	.	2d	.	1g	de-	1b-y	.
.	.	.	.	.	.	2e	.	.	.	.	.
=86	=86	=86	=86	=86	=86	=86	=86	=86	=86	=86	=86
2.F	no-	1c	-nes,	0A	et	2f	-dit	2a	-scen-	0a	-tem
.	.	.	.	.	.	2c	de	2.f	-dit	.	.
4E	.	.	.	.	.	.	.	.	.	.	.
2D	.	2r	.	.	.	2d	cae-	.	.	.	.
.	.	.	.	.	.	.	.	4g	.	.	.
2C	.	2c	et	.	.	2e	.	2a	.	.	.
=87	=87	=87	=87	=87	=87	=87	=87	=87	=87	=87	=87
0BB-y	-stram	1F	pro-	1d	pro-	1.f	.	2.b-y	de	1r	.
.	.	.	.	.	.	.	.	4a	.	.	.
.	.	1B-y	-pter	1d	-pter	.	.	2b-y	.	1dd	de-
.	.	.	.	.	.	2d	.	[2g	cae-	.	.
=88	=88	=88	=88	=88	=88	=88	=88	=88	=88	=88	=88
1C	sa-	1G	no-	2.c	no-	1g	-lis,	4g]	.	2ee	-scen-
.	.	.	.	.	.	.	.	4f	.	.	.
.	.	.	.	.	.	.	.	4e	.	2.cc	-dit
.	.	.	.	4B-y	.	.	.	4d	.	.	.
1C	-lu-	1c	-stram	2A	.	1r	.	1e	.	.	.
.	.	.	.	.	.	.	.	.	.	4dd	.
.	.	.	.	2G	.	.	.	.	.	2ee	.
=89	=89	=89	=89	=89	=89	=89	=89	=89	=89	=89	=89
0D	-tem	0A	sa-	0F	-stram	1r	.	1.d	.	2.ff	de
.	.	.	.	.	.	.	.	.	.	4ee	.
.	.	.	.	.	.	1f	[de-	.	.	2ff	.
.	.	.	.	.	.	.	.	[2f	.	[2dd	cae-
=90	=90	=90	=90	=90	=90	=90	=90	=90	=90	=90	=90
0r	.	0B-y	-lu-	1G	sa-	1d	-scen-	4f]	.	4dd]	.
.	.	.	.	.	.	.	.	4e	.	4cc	.
.	.	.	.	.	.	.	.	4d	.	4b-y	.
.	.	.	.	.	.	.	.	4c	.	4a	.
.	.	.	.	1G	-lu-	1g	-dit	1d	.	1b-y	.
=91	=91	=91	=91	=91	=91	=91	=91	=91	=91	=91	=91
1r	.	1.F	-tem	0A	-tem	1.f	de	[0c	-lis,	1.a	.
2r	.	.	.	.	.	.	.	.	.	.	.
2C	de-	2G	.	.	.	2e	.	.	.	[2cc	.
=92	=92	=92	=92	=92	=92	=92	=92	=92	=92	=92	=92
1F	-scen-	2.A	.	0r	.	1f	.	1c]	.	4cc]	.
.	.	.	.	.	.	.	.	.	.	4b-y	.
.	.	.	.	.	.	.	.	.	.	4a	.
.	.	4B-y	.	.	.	.	.	.	.	4g	.
1F	-dit	1c	.	.	.	1f	cae-	2r	.	1a	.
.	.	.	.	.	.	.	.	2c	[de-	.	.
=93	=93	=93	=93	=93	=93	=93	=93	=93	=93	=93	=93
0E	.	0C	de-	1r	.	1g	-lis,	2.e	-scen-	[0g	-lis,
.	.	.	.	.	.	.	.	4f	.	.	.
.	.	.	.	2r	.	2r	.	2.g	.	.	.
.	.	.	.	2G	de-	[2e	de-	.	.	.	.
.	.	.	.	.	.	.	.	4f	.	.	.
=94	=94	=94	=94	=94	=94	=94	=94	=94	=94	=94	=94
0C	de	1C	-scen-	1c	-scen-	4e]	.	4e	.	1g]	.
.	.	.	.	.	.	4f	.	4d	.	.	.
.	.	.	.	.	.	2g	.	1e	-dit	.	.
.	.	[1G	-dit	1c	-dit	2c	-scen-	.	.	2r	.
.	.	.	.	.	.	[2g	.	4d	.	2g	[de
.	.	.	.	.	.	.	.	4c	.	.	.
=95	=95	=95	=95	=95	=95	=95	=95	=95	=95	=95	=95
2.G	cae-	0G]	.	0B-y	de	2g]	.	2d	.	2.b-y	cae-
.	.	.	.	.	.	4f	.	2.g	de	.	.
4A	.	.	.	.	.	4e	.	.	.	4cc	.
2B-y	.	.	.	.	.	2d	-dit	.	.	2.dd	.
.	.	.	.	.	.	.	.	4f	.	.	.
[2G	.	.	.	.	.	2B-y	de	2g	.	.	.
.	.	.	.	.	.	.	.	.	.	4cc	.
=96	=96	=96	=96	=96	=96	=96	=96	=96	=96	=96	=96
4G]	.	2r	.	0G	cae-	1.B-y	cae-	2d	cae-	4b-y	.
4F	.	.	.	.	.	.	.	.	.	4a	.
4E	.	2G	de	.	.	.	.	2g	.	1b-y	.
4D	.	.	.	.	.	.	.	.	.	.	.
1E-X	.	2G	cae-	.	.	.	.	1g	.	.	.
.	.	2C	.	.	.	2c	.	.	.	4a	.
.	.	.	.	.	.	.	.	.	.	4g	.
=97	=97	=97	=97	=97	=97	=97	=97	=97	=97	=97	=97
[0Dl	-lis.	2.F	.	[0dl	-lis.	[0Al	-lis].	[0fl	-lis].	[0al	-lis].
.	.	4G	.	.	.	.	.	.	.	.	.
.	.	2A	.	.	.	.	.	.	.	.	.
.	.	2D	.	.	.	.	.	.	.	.	.
=98	=98	=98	=98	=98	=98	=98	=98	=98	=98	=98	=98
00D]	.	00F	-lis.	00d]	.	00A]	.	00f]	.	00a]	.
=99||	=99||	=99||	=99||	=99||	=99||	=99||	=99||	=99||	=99||	=99||	=99||
*M2/1	*	*M2/1	*	*M2/1	*	*M2/1	*	*M2/1	*	*M2/1	*
*met(C|)	*	*met(C|)	*	*met(C|)	*	*met(C|)	*	*met(C|)	*	*met(C|)	*
!!section: Et incarnatus est
!!!OMD: Et incarnatus est
0r	.	1r	.	0r	.	1G	Et	1g	Et	0r	.
.	.	1G	Et	.	.	2.B-y	in-	1g	in-	.	.
.	.	.	.	.	.	4c	-car-	.	.	.	.
=100	=100	=100	=100	=100	=100	=100	=100	=100	=100	=100	=100
0r	.	2.B-y	in-	0r	.	2d	-na-	1f	-car-	0r	.
.	.	.	.	.	.	2d	.	.	.	.	.
.	.	4c	-car-	.	.	.	.	.	.	.	.
.	.	2d	-na-	.	.	1G	-tus	[1b-y	-na-	.	.
.	.	2d	-tus	.	.	.	.	.	.	.	.
=101	=101	=101	=101	=101	=101	=101	=101	=101	=101	=101	=101
0r	.	1G	est	0r	.	2.B-y	est	2b-]	.	1dd	Et
.	.	.	.	.	.	.	.	4a	.	.	.
.	.	.	.	.	.	4c	.	4g	.	.	.
.	.	1B-y	de	.	.	2d	.	2f	.	1dd	in-
.	.	.	.	.	.	2B-y	de	2g	-tus	.	.
=102	=102	=102	=102	=102	=102	=102	=102	=102	=102	=102	=102
0r	.	1F	Spi-	0r	.	2.f	Spi-	1.a	est	1cc	-car-
.	.	.	.	.	.	4e	.	.	.	.	.
.	.	1F	-ri-	.	.	4f	.	.	.	[1ff	-na-
.	.	.	.	.	.	4e	.	.	.	.	.
.	.	.	.	.	.	4d	.	2f	de	.	.
.	.	.	.	.	.	4c	-ri-	.	.	.	.
=103	=103	=103	=103	=103	=103	=103	=103	=103	=103	=103	=103
0r	.	1B-y	-tu	0r	.	2.d	-tu	2f	Spi-	2ff]	.
.	.	.	.	.	.	.	.	2g	.	4ee	.
.	.	.	.	.	.	4e	.	.	.	4dd	.
.	.	2A	San-	.	.	4f	.	2a	.	2.cc	-tus
.	.	.	.	.	.	4d	.	.	.	.	.
.	.	2G	.	.	.	[2g	San-	2b-y	.	.	.
.	.	.	.	.	.	.	.	.	.	4dd	.
=104	=104	=104	=104	=104	=104	=104	=104	=104	=104	=104	=104
0r	.	1c	-cto,	0r	.	4g]	.	2g	.	1.ee	est
.	.	.	.	.	.	4f	.	.	.	.	.
.	.	.	.	.	.	4e	.	2.cc	.	.	.
.	.	.	.	.	.	4d	.	.	.	.	.
.	.	2r	.	.	.	2c	.	.	.	.	.
.	.	.	.	.	.	.	.	4b-y	.	.	.
.	.	2c	[de	.	.	2e	.	4a	.	2cc	de
.	.	.	.	.	.	.	.	4g	.	.	.
=105	=105	=105	=105	=105	=105	=105	=105	=105	=105	=105	=105
0r	.	2A	Spi-	0r	.	2f	.	2a	-ri-	2cc	Spi-
.	.	2B-y	.	.	.	2d	.	1g	-tu	2dd	.
.	.	2c	.	.	.	1a	.	.	.	2ee	.
.	.	2d	.	.	.	.	.	2f	.	2ff	.
=106	=106	=106	=106	=106	=106	=106	=106	=106	=106	=106	=106
0r	.	1G	-ri-	0r	.	1b-y	.	2.g	San-	2dd	.
.	.	.	.	.	.	.	.	.	.	2.gg	.
.	.	.	.	.	.	.	.	4f	.	.	.
.	.	2.c	-tu	.	.	2g	.	4e	.	.	.
.	.	.	.	.	.	.	.	4d	.	4ff	.
.	.	.	.	.	.	[2cc	.	[2g	.	4ee	.
.	.	4B-y	.	.	.	.	.	.	.	4dd	.
=107	=107	=107	=107	=107	=107	=107	=107	=107	=107	=107	=107
0r	.	2c	.	0r	.	4cc]	.	4g]	.	2ee	-ri-
.	.	.	.	.	.	4b-y	.	4f	.	.	.
.	.	2d	.	.	.	4a	.	4e	.	1dd	-tu
.	.	.	.	.	.	4g	.	4d	.	.	.
.	.	1A	San-	.	.	1a	.	1e	.	.	.
.	.	.	.	.	.	.	.	.	.	2cc#i	.
=108	=108	=108	=108	=108	=108	=108	=108	=108	=108	=108	=108
0r	.	1B-y	-cto,	0r	.	1f	.	1d	-cto,	2.dd	San-
.	.	.	.	.	.	.	.	.	.	4cc	.
.	.	1G	.	.	.	2.g	.	2r	.	4b-y	.
.	.	.	.	.	.	.	.	.	.	4a	.
.	.	.	.	.	.	.	.	2B-y	[de	[2dd	.
.	.	.	.	.	.	4f	.	.	.	.	.
=109	=109	=109	=109	=109	=109	=109	=109	=109	=109	=109	=109
1G	De	0r	.	0r	.	2e	.	2.B-y	Spi-	4dd]	.
.	.	.	.	.	.	.	.	.	.	4cc	.
.	.	.	.	.	.	1d	.	.	.	4b-y	.
.	.	.	.	.	.	.	.	4c	-ri-	4a	.
1G	Spi-	.	.	.	.	.	.	2d	-tu	1b-y	.
.	.	.	.	.	.	4c	.	2e	San]-	.	.
.	.	.	.	.	.	4B-y	.	.	.	.	.
=110	=110	=110	=110	=110	=110	=110	=110	=110	=110	=110	=110
1F	-ri-	0r	.	0r	.	1c	-[cto]	0f	-cto:	1a	-cto,
[1B-y	-tu	.	.	.	.	1d	.	.	.	2r	.
.	.	.	.	.	.	.	.	.	.	2f	[de
=111	=111	=111	=111	=111	=111	=111	=111	=111	=111	=111	=111
2B-]	.	2r	.	1d	De	0r	.	0r	.	2.f	Spi-
4A	.	2D	de	.	.	.	.	.	.	.	.
4G	.	.	.	.	.	.	.	.	.	4g	-ri-
2.F	San-	2D	Spi-	1d	Spi-	.	.	.	.	2a	-tu
.	.	2BB-y	-ri	.	.	.	.	.	.	2b-y	San-
4G	.	.	.	.	.	.	.	.	.	.	.
=112	=112	=112	=112	=112	=112	=112	=112	=112	=112	=112	=112
1.A	-cto	1F	tu	1c	-ri-	0r	.	0r	.	0cc	-cto]:
.	.	2.F	San-	[1f	-tu	.	.	.	.	.	.
2F	ex	.	.	.	.	.	.	.	.	.	.
.	.	4E	.	.	.	.	.	.	.	.	.
=113	=113	=113	=113	=113	=113	=113	=113	=113	=113	=113	=113
2F	Ma-	2D	.	2f]	.	0r	.	0r	.	0r	.
2G	.	1C	.	4e	.	.	.	.	.	.	.
.	.	.	.	4d	.	.	.	.	.	.	.
2A	-ri-	.	.	2c	San-	.	.	.	.	.	.
2B-y	.	2BB-y	.	2d	.	.	.	.	.	.	.
=114	=114	=114	=114	=114	=114	=114	=114	=114	=114	=114	=114
2G	-a	0AA	-cto	1.e	-cto	2r	.	0r	.	0r	.
2.c	Vir-	.	.	.	.	2g	ex	.	.	.	.
.	.	.	.	.	.	1cc	Ma-	.	.	.	.
4B-y	.	.	.	.	.	.	.	.	.	.	.
4A	.	.	.	2c	ex	.	.	.	.	.	.
4G	.	.	.	.	.	.	.	.	.	.	.
=115	=115	=115	=115	=115	=115	=115	=115	=115	=115	=115	=115
2A	.	2r	.	2c	Ma-	2cc	-ri-	0r	.	0r	.
1G	.	2G	ex	2d	.	2b-y	-a	.	.	.	.
.	.	1c	Ma-	2e	-ri-	2g	Vir-	.	.	.	.
2F	.	.	.	2f	.	2a	.	.	.	.	.
=116	=116	=116	=116	=116	=116	=116	=116	=116	=116	=116	=116
2.G	.	2.B-y	-ri-	2d	-a	1b-y	-gi-	1r	.	0r	.
.	.	.	.	2.g	Vir-	.	.	.	.	.	.
4F	.	4A	.	.	.	.	.	.	.	.	.
4E	.	2c	-a	.	.	1g	-ne:	2r	.	.	.
4D	.	.	.	4f	.	.	.	.	.	.	.
[2G	.	2B-y	.	4e	.	.	.	2g	Et	.	.
.	.	.	.	4d	.	.	.	.	.	.	.
=117	=117	=117	=117	=117	=117	=117	=117	=117	=117	=117	=117
4G]	.	0G	Vir-	2e	.	0r	.	2g	ho-	0r	.
4F	.	.	.	.	.	.	.	.	.	.	.
4E	.	.	.	1d	.	.	.	2g	-mo	.	.
4D	.	.	.	.	.	.	.	.	.	.	.
1E	-gi-	.	.	.	.	.	.	1g	fa-	.	.
.	.	.	.	2c#i	.	.	.	.	.	.	.
=118	=118	=118	=118	=118	=118	=118	=118	=118	=118	=118	=118
1D	-ne:	1A	-gi-	2.d	.	0r	.	1f	.	1r	.
.	.	.	.	4c	.	.	.	.	.	.	.
2r	.	[1D	-ne:	4B-y	.	.	.	2f	-ctus	2r	.
.	.	.	.	4A	.	.	.	.	.	.	.
2BB-y	Et	.	.	[2d	.	.	.	[2b-y	est.	2dd	Et
=119	=119	=119	=119	=119	=119	=119	=119	=119	=119	=119	=119
2.BB-y	ho-	1D]	.	4d]	.	0r	.	2b-]	.	2dd	ho-
.	.	.	.	4c	.	.	.	.	.	.	.
.	.	.	.	4B-y	.	.	.	4a	.	2dd	-mo
4C	-mo	.	.	4A	.	.	.	4g	.	.	.
2D	fa-	1r	.	1B-y	-gi	.	.	2f	.	1dd	fa-
2E	-ctus	.	.	.	.	.	.	2g	.	.	.
=120	=120	=120	=120	=120	=120	=120	=120	=120	=120	=120	=120
0F	est.	1r	.	1A	ne:	2r	.	0a	.	1cc	.
.	.	.	.	.	.	2f	Et	.	.	.	.
.	.	2r	.	2r	.	2.f	ho-	.	.	2cc	-ctus
.	.	2D	Et	2F	Et	.	.	.	.	[2ff	est.
.	.	.	.	.	.	4g	-mo	.	.	.	.
=121	=121	=121	=121	=121	=121	=121	=121	=121	=121	=121	=121
0r	.	2.D	ho-	2.F	ho-	1.a	fa-	1f	.	2ff]	.
.	.	.	.	.	.	.	.	.	.	4ee	.
.	.	4E	-mo	4G	-mo	.	.	.	.	4dd	.
.	.	2F	fa-	2A	fa-	.	.	2r	.	2cc	.
.	.	2D	-ctus	2B-y	-ctus	2f	-ctus	2b-y	Cru-	2dd	.
=122	=122	=122	=122	=122	=122	=122	=122	=122	=122	=122	=122
0r	.	1C	est.	0c	est.	1cc	est.	2g	-ci-	0ee	.
.	.	.	.	.	.	.	.	2.a	-fi-	.	.
.	.	1c	Cru-	.	.	2r	.	.	.	.	.
.	.	.	.	.	.	.	.	4g	-xus	.	.
.	.	.	.	.	.	2g	[Cru-	[2cc	e-	.	.
=123	=123	=123	=123	=123	=123	=123	=123	=123	=123	=123	=123
0r	.	1A	-ci-	0r	.	1a	-ci-	4cc]	.	1cc	.
.	.	.	.	.	.	.	.	4b-y	.	.	.
.	.	.	.	.	.	.	.	4a	.	.	.
.	.	.	.	.	.	.	.	4g	.	.	.
.	.	1d	-fi-	.	.	1a	-fi-	2f	.	2r	.
.	.	.	.	.	.	.	.	2f	-ti-	2ff	Cru-
=124	=124	=124	=124	=124	=124	=124	=124	=124	=124	=124	=124
0r	.	1G	-xus	0r	.	1b-y	.	1.g	-am	2dd	-ci-
.	.	.	.	.	.	.	.	.	.	2.ee	-fi-
.	.	1r	.	.	.	2b-y	-xus],	.	.	.	.
.	.	.	.	.	.	.	.	.	.	4dd	.
.	.	.	.	.	.	2cc	cru-	2e	pro	[2gg	.
=125	=125	=125	=125	=125	=125	=125	=125	=125	=125	=125	=125
0r	.	1G	e-	0r	.	2b-y	-ci-	2.g	no-	4gg]	.
.	.	.	.	.	.	.	.	.	.	4ff	.
.	.	.	.	.	.	2b-y	-fi-	.	.	4ee	.
.	.	.	.	.	.	.	.	4f	.	4dd	.
.	.	1A	-ti-	.	.	1a	-xus	1e	.	2cc	.
.	.	.	.	.	.	.	.	.	.	2cc	-xus
=126	=126	=126	=126	=126	=126	=126	=126	=126	=126	=126	=126
1r	.	2B-y	-am	0r	.	2f	e-	2d	-bis:	1.dd	e-
.	.	2G	pro	.	.	2b-y	-ti-	2g	sub	.	.
2r	.	1d	no-	.	.	2a	-am	2f	Pon-	.	.
2G	Sub	.	.	.	.	2g	pro	[2g	.	2b-y	-ti-
=127	=127	=127	=127	=127	=127	=127	=127	=127	=127	=127	=127
2G	Pon-	1d	-bis:	0r	.	2.b-y	no-	2g]	.	2.dd	-am
2G	-ti-	.	.	.	.	.	.	4f	.	.	.
.	.	.	.	.	.	4a	.	4e	-ti-	4cc	pro
1G	-o	1r	.	.	.	1g	.	2d	-o	1b-y	no-
.	.	.	.	.	.	.	.	2e	Pi-	.	.
=128	=128	=128	=128	=128	=128	=128	=128	=128	=128	=128	=128
1F	Pi-	2.D	sub	1r	.	1a	-bis:	1f	-la-	2a	-bis:
.	.	.	.	.	.	.	.	.	.	2dd	sub
.	.	4E	.	.	.	.	.	.	.	.	.
2F	-la-	2F	Pon-	2r	.	1r	.	[1f	-to	2cc	Po-
[2B-y	.	2BB-y	-ti-	2d	Sub	.	.	.	.	[2dd	.
=129	=129	=129	=129	=129	=129	=129	=129	=129	=129	=129	=129
2B-]	.	2.BB-y	-o	2d	Pon-	0r	.	1f]	.	2dd]	.
4A	.	.	.	2d	-ti-	.	.	.	.	4cc	.
4G	.	4C	.	.	.	.	.	.	.	4b-y	-ti-
2.F	.	2D	.	1d	-o	.	.	1r	.	2a	-o
.	.	2BB-y	Pi-	.	.	.	.	.	.	2b-y	Pi-
4G	.	.	.	.	.	.	.	.	.	.	.
=130	=130	=130	=130	=130	=130	=130	=130	=130	=130	=130	=130
0A	.	1F	-la-	1c	Pi-	1f	sub	0r	.	1cc	-la-
.	.	1F	-to	2c	-la-	2.f	Pon-	.	.	[1cc	-to,
.	.	.	.	[2f	.	.	.	.	.	.	.
.	.	.	.	.	.	4g	-ti-	.	.	.	.
=131	=131	=131	=131	=131	=131	=131	=131	=131	=131	=131	=131
1F	-to	2r	.	2f]	.	1a	-o	0r	.	1cc]	.
.	.	1F	pas-	4e	.	.	.	.	.	.	.
.	.	.	.	4d	.	.	.	.	.	.	.
2r	.	.	.	2.c	.	1f	Pi-	.	.	1r	.
2B-y	pas-	2BB-y	-sus,	.	.	.	.	.	.	.	.
.	.	.	.	4d	.	.	.	.	.	.	.
=132	=132	=132	=132	=132	=132	=132	=132	=132	=132	=132	=132
2G	-sus,	2C	et	1e	.	1.cc	-la-	1r	.	0r	.
2.A	et	2.c	se-	.	.	.	.	.	.	.	.
.	.	.	.	1e	-to	.	.	1c	pas-	.	.
4G	se-	4B-y	.	.	.	.	.	.	.	.	.
[2c	-pul-	4A	.	.	.	2cc	-to	.	.	.	.
.	.	4G	.	.	.	.	.	.	.	.	.
=133	=133	=133	=133	=133	=133	=133	=133	=133	=133	=133	=133
4c]	.	1A	-pul-	1c	.	1cc	pas-	1c	-sus,	0r	.
4B-y	.	.	.	.	.	.	.	.	.	.	.
4A	.	.	.	.	.	.	.	.	.	.	.
4G	.	.	.	.	.	.	.	.	.	.	.
2F	.	1A	-tus	2r	.	1a	-sus,	1c	et	.	.
2F	-tus	.	.	2f	pas-	.	.	.	.	.	.
=134	=134	=134	=134	=134	=134	=134	=134	=134	=134	=134	=134
1.G	est,	1G	est,	2d	-sus,	1.b-y	et	1.B-y	se-	1r	.
.	.	.	.	2.e	et	.	.	.	.	.	.
.	.	1r	.	.	.	.	.	.	.	1g	se-
.	.	.	.	4d	se-	.	.	.	.	.	.
2E	[se-	.	.	[2g	-pul-	2g	se-	2c	.	.	.
=135	=135	=135	=135	=135	=135	=135	=135	=135	=135	=135	=135
2.G	-pul-	1r	.	4g]	.	1b-y	-pul-	1B-y	-pul-	1g	-pul-
.	.	.	.	4f	.	.	.	.	.	.	.
.	.	.	.	4e	.	.	.	.	.	.	.
4F	.	.	.	4d	.	.	.	.	.	.	.
1E	-tus	1C	[se-	2c	.	1cc	-tus	1G	-tus	1g	-tus
.	.	.	.	2c	-tus	.	.	.	.	.	.
=136	=136	=136	=136	=136	=136	=136	=136	=136	=136	=136	=136
[0Dl	est].	1.F	-pul-	[0dl	est.	[0al	est.	[0Al	est.	[0fl	est.
.	.	2F	-tus	.	.	.	.	.	.	.	.
=137	=137	=137	=137	=137	=137	=137	=137	=137	=137	=137	=137
00D]	.	00F	est].	00d]	.	00a]	.	00A]	.	00f]	.
=138||	=138||	=138||	=138||	=138||	=138||	=138||	=138||	=138||	=138||	=138||	=138||
*M2/1	*	*M2/1	*	*M2/1	*	*M2/1	*	*M2/1	*	*M2/1	*
*met(C|)	*	*met(C|)	*	*met(C|)	*	*met(C|)	*	*met(C|)	*	*met(C|)	*
!!section: Et resurrexit
!!!OMD: Et resurrexit
!	!	!	!	!LO:TX:a:t=Canon&colon; tenor I/tenor II at the fifth	!	!	!	!	!	!LO:TX:a:t=Canon&colon; superius/altus I at the fifth	!
0r	.	0r	.	1A	Et	0r	.	0r	.	0r	.
.	.	.	.	2A	re-	.	.	.	.	.	.
.	.	.	.	2B-y	-sur-	.	.	.	.	.	.
=139	=139	=139	=139	=139	=139	=139	=139	=139	=139	=139	=139
0r	.	0r	.	2.c	-re-	1.A	Et	0r	.	0r	.
.	.	.	.	4B-y	.	.	.	.	.	.	.
.	.	.	.	4A	.	.	.	.	.	.	.
.	.	.	.	4G	.	.	.	.	.	.	.
.	.	.	.	[2B-y	.	2G	re-	.	.	.	.
=140	=140	=140	=140	=140	=140	=140	=140	=140	=140	=140	=140
1D	Et	0r	.	4B-]	.	1A	-sur-	0r	.	0r	.
.	.	.	.	4A	.	.	.	.	.	.	.
.	.	.	.	1A	.	.	.	.	.	.	.
2D	re-	.	.	.	.	1B-y	-re-	.	.	.	.
2E	-sur-	.	.	2G	.	.	.	.	.	.	.
=141	=141	=141	=141	=141	=141	=141	=141	=141	=141	=141	=141
2.F	-re-	1.D	Et	1A	-xit	[0A	-xit	0r	.	0r	.
4E	.	.	.	.	.	.	.	.	.	.	.
4D	.	.	.	1r	.	.	.	.	.	.	.
4C	.	.	.	.	.	.	.	.	.	.	.
[2E	.	2C	re-	.	.	.	.	.	.	.	.
=142	=142	=142	=142	=142	=142	=142	=142	=142	=142	=142	=142
4E]	.	1D	-sur-	1f	ter-	1A]	.	0r	.	0r	.
4D	.	.	.	.	.	.	.	.	.	.	.
1D	.	.	.	.	.	.	.	.	.	.	.
.	.	1E	-re-	1g	-ti-	1r	.	.	.	.	.
2C#i	.	.	.	.	.	.	.	.	.	.	.
=143	=143	=143	=143	=143	=143	=143	=143	=143	=143	=143	=143
1D	-xit	2D	-xit	2f	-a	1.A	ter-	0r	.	0r	.
.	.	1F	ter-	1d	di-	.	.	.	.	.	.
1r	.	.	.	.	.	.	.	.	.	.	.
.	.	2A	-ti-	2c	.	2c	-ti-	.	.	.	.
=144	=144	=144	=144	=144	=144	=144	=144	=144	=144	=144	=144
1B-y	ter-	1G	-a	1d	-e,	2B-y	-a	0r	.	0r	.
.	.	.	.	.	.	1G	di-	.	.	.	.
1c	-ti-	1C	di-	1e	.	.	.	.	.	.	.
.	.	.	.	.	.	2A	.	.	.	.	.
=145	=145	=145	=145	=145	=145	=145	=145	=145	=145	=145	=145
2B-y	-a	1G	-e,	2.d	se-	2.B-y	.	0r	.	0r	.
1G	di-	.	.	.	.	.	.	.	.	.	.
.	.	.	.	4c	.	4c	.	.	.	.	.
.	.	1r	.	2B-y	-cun-	4d	.	.	.	.	.
.	.	.	.	.	.	4e	.	.	.	.	.
2F	-e	.	.	2A	.	4f	.	.	.	.	.
.	.	.	.	.	.	4d	.	.	.	.	.
=146	=146	=146	=146	=146	=146	=146	=146	=146	=146	=146	=146
1G	se-	1B-y	se-	2G	.	4e	.	0r	.	0r	.
.	.	.	.	.	.	4d	.	.	.	.	.
.	.	.	.	2B-y	.	1g	.	.	.	.	.
1A	.	2A	-cun-	2c	-dum	.	.	.	.	.	.
.	.	2c	-dum	2c	Scri-	2f#i	.	.	.	.	.
=147	=147	=147	=147	=147	=147	=147	=147	=147	=147	=147	=147
2.G	-cun-	2.B-y	Scri-	2.e	-ptu-	1g	-e,	0r	.	0r	.
4F	.	4A	.	4d	.	.	.	.	.	.	.
2E	.	2G	.	2c	.	1r	.	.	.	.	.
2D	.	2F	-ptu-	2B-y	.	.	.	.	.	.	.
=148	=148	=148	=148	=148	=148	=148	=148	=148	=148	=148	=148
2C	.	1G	-ras,	[0c	-ras.	2r	.	0r	.	0r	.
2E	.	.	.	.	.	2g	se-	.	.	.	.
2F	-dum	1r	.	.	.	2.a	-cun-	.	.	.	.
2F	Scri-	.	.	.	.	.	.	.	.	.	.
.	.	.	.	.	.	4g	.	.	.	.	.
=149	=149	=149	=149	=149	=149	=149	=149	=149	=149	=149	=149
2.A	-ptu-	2r	.	1c]	.	2f	-dum	0r	.	0r	.
.	.	2A	[se-	.	.	2e	.	.	.	.	.
4G	.	.	.	.	.	.	.	.	.	.	.
2F	.	2A	-cun-	1r	.	2f	Scri-	.	.	.	.
2E	.	2G	-dum	.	.	2g	-ptu-	.	.	.	.
=150	=150	=150	=150	=150	=150	=150	=150	=150	=150	=150	=150
[0F	-ras.	4A	Scri-	1c	Et	2c	-ras.	0r	.	1a	Et
.	.	4G	.	.	.	.	.	.	.	.	.
.	.	4F	.	.	.	2.f	Et	.	.	.	.
.	.	4E	.	.	.	.	.	.	.	.	.
.	.	2D	.	1d	a-	.	.	.	.	2a	a-
.	.	.	.	.	.	4e	.	.	.	.	.
.	.	2BB-y	.	.	.	4f	.	.	.	2b-y	-scen-
.	.	.	.	.	.	4g	.	.	.	.	.
=151	=151	=151	=151	=151	=151	=151	=151	=151	=151	=151	=151
1F]	.	1.F	.	2c	-scen-	2.a	a-	0r	.	2.cc	-dit
.	.	.	.	1A	.	.	.	.	.	.	.
.	.	.	.	.	.	4g	.	.	.	4b-y	.
1r	.	.	.	.	.	2f	-scen-	.	.	4a	.
.	.	.	.	.	.	.	.	.	.	4g	.
.	.	2G	-ptu-	2G	-dit	2e	-dit	.	.	[2b-y	in
=152	=152	=152	=152	=152	=152	=152	=152	=152	=152	=152	=152
1F	Et	1D	-ras].	1A	in	2.f	in	1d	Et	4b-]	.
.	.	.	.	.	.	.	.	.	.	4a	.
.	.	.	.	.	.	.	.	.	.	1a	cae-
.	.	.	.	.	.	4e	.	.	.	.	.
1G	a-	1r	.	1B-y	cae-	4d	.	2d	a-	.	.
.	.	.	.	.	.	4c	.	.	.	.	.
.	.	.	.	.	.	2B-y	.	2e	-scen-	2g	.
=153	=153	=153	=153	=153	=153	=153	=153	=153	=153	=153	=153
2F	-scen-	0r	.	1A	-lum.	2c	cae-	2.f	-dit	1a	-lum:
1D	.	.	.	.	.	2d	.	.	.	.	.
.	.	.	.	.	.	.	.	4e	.	.	.
.	.	.	.	1r	.	1A	-lum:	4d	.	1r	.
.	.	.	.	.	.	.	.	4c	.	.	.
2C	-dit	.	.	.	.	.	.	[2e	in	.	.
=154	=154	=154	=154	=154	=154	=154	=154	=154	=154	=154	=154
1D	in	2r	.	0r	.	1r	.	4e]	.	1ff	se-
.	.	.	.	.	.	.	.	4d	.	.	.
.	.	2A	Et	.	.	.	.	1d	cae-	.	.
1E	cae-	2A	a-	.	.	2r	.	.	.	1gg	-det
.	.	2G	-scen-	.	.	2e	se-	2c#i	.	.	.
=155	=155	=155	=155	=155	=155	=155	=155	=155	=155	=155	=155
1D	-lum.	1A	-dit	0r	.	1f	-det	1d	-lum:	2ff	ad
.	.	.	.	.	.	.	.	.	.	1dd	dex-
1r	.	1A	in	.	.	2e	ad	1r	.	.	.
.	.	.	.	.	.	[2f	dex-	.	.	2cc	-te-
=156	=156	=156	=156	=156	=156	=156	=156	=156	=156	=156	=156
0r	.	1B-y	cae-	0r	.	2f]	.	1b-y	se-	1dd	-ram
.	.	.	.	.	.	2g	-te-	.	.	.	.
.	.	2A	.	.	.	4c	-ram	1cc	-det	1ee	Pa-
.	.	.	.	.	.	4d	.	.	.	.	.
.	.	2c	.	.	.	4e	.	.	.	.	.
.	.	.	.	.	.	4f	.	.	.	.	.
=157	=157	=157	=157	=157	=157	=157	=157	=157	=157	=157	=157
0r	.	1G	-lum:	0r	.	4g	.	2b-y	ad	2.dd	-tris.
.	.	.	.	.	.	4a	.	.	.	.	.
.	.	.	.	.	.	2.b-y	Pa-	1g	dex-	.	.
.	.	.	.	.	.	.	.	.	.	4cc	.
.	.	1r	.	.	.	.	.	.	.	2b-y	.
.	.	.	.	.	.	4g	.	.	.	.	.
.	.	.	.	.	.	2cc	.	2f	-te-	2a	Et
=158	=158	=158	=158	=158	=158	=158	=158	=158	=158	=158	=158
0r	.	1r	.	0r	.	2b-y	.	1g	-ram	2g	i-
.	.	.	.	.	.	1g	.	.	.	2b-y	-te-
.	.	1F	se-	.	.	.	.	1a	Pa-	2cc	-rum
.	.	.	.	.	.	2f	.	.	.	2cc	ven-
=159	=159	=159	=159	=159	=159	=159	=159	=159	=159	=159	=159
0r	.	1.c	-det	0r	.	1g	-tris.	2.g	-tris.	2.ee	-tu-
.	.	.	.	.	.	.	.	4f	.	4dd	.
.	.	.	.	.	.	2r	.	2e	.	2cc	.
.	.	2G	ad	.	.	2g	Et	2d	Et	2b-y	-rus
=160	=160	=160	=160	=160	=160	=160	=160	=160	=160	=160	=160
0r	.	1A	dex-	0r	.	2e	i-	2c	i-	[0cc	est
.	.	.	.	.	.	2a	-te-	2e	-te-	.	.
.	.	1F	-te-	.	.	2.a	-rum	2f	-rum	.	.
.	.	.	.	.	.	.	.	2f	ven-	.	.
.	.	.	.	.	.	4g	.	.	.	.	.
=161	=161	=161	=161	=161	=161	=161	=161	=161	=161	=161	=161
0r	.	2.F	-ram	0r	.	4f	ven-	2.a	-tu-	1cc]	.
.	.	.	.	.	.	4e	.	.	.	.	.
.	.	.	.	.	.	1a	-tu-	.	.	.	.
.	.	4G	.	.	.	.	.	4g	.	.	.
.	.	4A	.	.	.	.	.	2f	.	1r	.
.	.	4B-y	.	.	.	.	.	.	.	.	.
.	.	2c	Pa-	.	.	2g	-rus	2e	-rus	.	.
=162	=162	=162	=162	=162	=162	=162	=162	=162	=162	=162	=162
0r	.	1F	-tris.	0r	.	1a	est	[0f	est	1cc	cum
.	.	1B-y	Et	.	.	2r	.	.	.	1dd	glo-
.	.	.	.	.	.	2b-y	cum	.	.	.	.
=163	=163	=163	=163	=163	=163	=163	=163	=163	=163	=163	=163
0r	.	1F	i-	0r	.	2a	glo-	1f]	.	2cc	-ri-
.	.	.	.	.	.	1cc	.	.	.	1a	-a,
.	.	1G	-te-	.	.	.	.	1r	.	.	.
.	.	.	.	.	.	2b-y	-ri-	.	.	2g	iu-
=164	=164	=164	=164	=164	=164	=164	=164	=164	=164	=164	=164
0r	.	1F	-rum	0r	.	2cc	-a,	1f	cum	1a	-di-
.	.	.	.	.	.	1a	iu-	.	.	.	.
.	.	1r	.	.	.	.	.	1g	glo-	1b-y	-ca-
.	.	.	.	.	.	2g	-di-	.	.	.	.
=165	=165	=165	=165	=165	=165	=165	=165	=165	=165	=165	=165
0r	.	2r	.	1f	Cum	1a	-ca-	2f	-ri-	1a	-re
.	.	2F	ven-	.	.	.	.	1d	-a,	.	.
.	.	2G	-tu-	2d	glo-	1g	.	.	.	1r	.
.	.	2E	-rua	2e	-ri-	.	.	2c#i	iu-	.	.
=166	=166	=166	=166	=166	=166	=166	=166	=166	=166	=166	=166
0r	.	2D	est	2f	-a,	1f	-re	1d	-di-	0r	.
.	.	2B-y	cum	1d	iu-	.	.	.	.	.	.
.	.	2G	glo-	.	.	1r	.	1e	-ca-	.	.
.	.	2A	.	2c#i	-di-	.	.	.	.	.	.
=167	=167	=167	=167	=167	=167	=167	=167	=167	=167	=167	=167
1B-y	Cum	4B-y	.	2d	-ca-	2r	.	1d	-re	0r	.
.	.	4G	.	.	.	.	.	.	.	.	.
.	.	1d	.	2f	-re	1b-y	vi-	.	.	.	.
2G	glo-	.	.	1e	vi-	.	.	1r	.	.	.
2A	-ri-	2c#i	-ri-	.	.	2a	-vos	.	.	.	.
=168	=168	=168	=168	=168	=168	=168	=168	=168	=168	=168	=168
2B-y	-a,	1d	-a,	2d	-vos	2f	et	0r	.	0r	.
1G	iu-	.	.	2B-y	et	2g	mor-	.	.	.	.
.	.	1r	.	2.c	mor-	1a	-tu-	.	.	.	.
2F#i	-di-	.	.	.	.	.	.	.	.	.	.
.	.	.	.	4d	.	.	.	.	.	.	.
=169	=169	=169	=169	=169	=169	=169	=169	=169	=169	=169	=169
2G	-ca-	2r	.	4e	.	1g	-os,	0r	.	0r	.
.	.	.	.	4d	.	.	.	.	.	.	.
2B-y	-re	2d	iu-	1g	.	.	.	.	.	.	.
1A	vi-	2c	-di-	.	.	2r	.	.	.	.	.
.	.	2A	-ca-	2f#i	-tu-	2c	[vi-	.	.	.	.
=170	=170	=170	=170	=170	=170	=170	=170	=170	=170	=170	=170
2G	-vos	2B-y	-re	1g	-os:	2d	-vos	0r	.	0r	.
2E	et	2G	vi-	.	.	2.c	et	.	.	.	.
2.F	mor-	2.A	-vos	[1c	cu-	.	.	.	.	.	.
.	.	.	.	.	.	4B-y	.	.	.	.	.
.	.	.	.	.	.	[2A	mor-	.	.	.	.
4G	.	4G	.	.	.	.	.	.	.	.	.
=171	=171	=171	=171	=171	=171	=171	=171	=171	=171	=171	=171
4A	.	2F	et	1c]	.	4A]	.	0r	.	0r	.
4G	.	.	.	.	.	4G	.	.	.	.	.
1c	.	2E	mor-	.	.	1G	.	.	.	.	.
.	.	1D	-tu-	1d	-ius	.	.	.	.	.	.
2BnXi	-tu-	.	.	.	.	2F	-tu-	.	.	.	.
=172	=172	=172	=172	=172	=172	=172	=172	=172	=172	=172	=172
1c	-os:	1C	-os:	1e	re-	2G	-os]:	0r	.	0r	.
.	.	.	.	.	.	2g	cu-	.	.	.	.
[1F	cu-	1r	.	2f	-gni	[1a	-ius	.	.	.	.
.	.	.	.	2d	non	.	.	.	.	.	.
=173	=173	=173	=173	=173	=173	=173	=173	=173	=173	=173	=173
1F]	.	2r	.	2.c	e-	1a]	.	0r	.	0r	.
.	.	1c	cu-	.	.	.	.	.	.	.	.
.	.	.	.	4d	.	.	.	.	.	.	.
1G	-ius	.	.	2e	-rit	2.g	re-	.	.	.	.
.	.	2B-y	-ius	[2d	fi-	.	.	.	.	.	.
.	.	.	.	.	.	4f	.	.	.	.	.
=174	=174	=174	=174	=174	=174	=174	=174	=174	=174	=174	=174
1A	re-	1c	re-	2d]	.	1e	.	0r	.	0r	.
.	.	.	.	2c	.	.	.	.	.	.	.
2B-y	-gni	1G	-gni	2.d	-nis.	1d	-gni	.	.	.	.
2G	non	.	.	.	.	.	.	.	.	.	.
.	.	.	.	8cL	.	.	.	.	.	.	.
.	.	.	.	8B-yJ	.	.	.	.	.	.	.
=175	=175	=175	=175	=175	=175	=175	=175	=175	=175	=175	=175
2.F	e-	1.c	non	1A	.	2r	.	0r	.	0r	.
.	.	.	.	.	.	1a	non	.	.	.	.
4G	.	.	.	.	.	.	.	.	.	.	.
2A	.	.	.	2r	.	.	.	.	.	.	.
[2G	-rit	2B-y	e-	2d	Et	2b-y	e-	.	.	.	.
=176	=176	=176	=176	=176	=176	=176	=176	=176	=176	=176	=176
2G]	.	1c	-rit	2e	in	2g	-rit	0r	.	0r	.
2F	.	.	.	2f	Spi-	2a	fi-	.	.	.	.
2.G	fi-	2.B-y	fi-	2d	-ri-	1b-y	-nis.	.	.	.	.
.	.	.	.	2e	-tum	.	.	.	.	.	.
8FL	.	8AL	.	.	.	.	.	.	.	.	.
8EJ	.	8GJ	.	.	.	.	.	.	.	.	.
=177	=177	=177	=177	=177	=177	=177	=177	=177	=177	=177	=177
1D	-nis.	1d	.	1f	San-	2r	.	0r	.	1ff	Et
.	.	.	.	.	.	2a	Et	.	.	.	.
2r	.	1G	-nis.	1g	-ctum,	1b-y	in	.	.	2dd	in
2G	Et	.	.	.	.	.	.	.	.	2ee	Spi-
=178	=178	=178	=178	=178	=178	=178	=178	=178	=178	=178	=178
2A	in	0r	.	1f	Do-	2cc	Spi-	0r	.	2ff	-ri-
2B-y	Spi-	.	.	.	.	1b-y	-ri-	.	.	1dd	-tum
2G	-ri-	.	.	1e	-mi-	.	.	.	.	.	.
2A	-tum	.	.	.	.	4a	.	.	.	2cc#i	.
.	.	.	.	.	.	4g	.	.	.	.	.
=179	=179	=179	=179	=179	=179	=179	=179	=179	=179	=179	=179
1B-y	San-	0r	.	1d	-num,	1f	-tum	1b-y	Et	2dd	San-
.	.	.	.	.	.	.	.	.	.	2ff	-ctum,
1c	-ctum,	.	.	1r	.	1r	.	2g	in	1ee	Do-
.	.	.	.	.	.	.	.	2a	.	.	.
=180	=180	=180	=180	=180	=180	=180	=180	=180	=180	=180	=180
1B-y	Do-	0r	.	0r	.	1r	.	2b-y	Spi-	2dd	-mi-
.	.	.	.	.	.	.	.	1g	-ri-	2b-y	-num,
1A	-mi-	.	.	.	.	2r	.	.	.	2.cc	et
.	.	.	.	.	.	[2c	San-	2f	-tum	.	.
.	.	.	.	.	.	.	.	.	.	4dd	.
=181	=181	=181	=181	=181	=181	=181	=181	=181	=181	=181	=181
1G	-num.	2r	.	0r	.	2c]	.	2g	San-	4ee	vi-
.	.	.	.	.	.	.	.	.	.	4dd	.
.	.	2G	Et	.	.	2B-y	.	2b-y	-ctum,	1gg	-vi-
1r	.	2A	vi-	.	.	2.c	-ctum	1a	Do-	.	.
.	.	2F	-vi-	.	.	.	.	.	.	2ff#i	-fi-
.	.	.	.	.	.	4d	.	.	.	.	.
=182	=182	=182	=182	=182	=182	=182	=182	=182	=182	=182	=182
0r	.	2.c	-fi-	0r	.	2e	.	2g	-mi-	1gg	-can-
.	.	.	.	.	.	1c	Do-	2e	-num,	.	.
.	.	4B-y	.	.	.	.	.	.	.	.	.
.	.	4A	.	.	.	.	.	2.f	et	[1cc	-tem:
.	.	4G	.	.	.	.	.	.	.	.	.
.	.	[2F	.	.	.	[2f	.	.	.	.	.
.	.	.	.	.	.	.	.	4g	.	.	.
=183	=183	=183	=183	=183	=183	=183	=183	=183	=183	=183	=183
0r	.	4F]	.	0r	.	4f]	.	4a	vi-	1cc]	.
.	.	4E	.	.	.	4g	.	4g	.	.	.
.	.	2C	-can-	.	.	2e	.	1cc	-vi-	.	.
.	.	1G	-tem:	.	.	1d	-mi-	.	.	1dd	qui
.	.	.	.	.	.	.	.	2bnXi	-fi-	.	.
=184	=184	=184	=184	=184	=184	=184	=184	=184	=184	=184	=184
0r	.	2r	.	0r	.	1c	-num.	1cc	-can-	1ee	ex
.	.	2C	qui	.	.	.	.	.	.	.	.
.	.	2D	ex	.	.	1r	.	[1f	-tem:	2ff	Pa-
.	.	2BB-y	Pa-	.	.	.	.	.	.	2dd	-tre
=185	=185	=185	=185	=185	=185	=185	=185	=185	=185	=185	=185
0r	.	1F	-tre.	0r	.	0r	.	1f]	.	2.cc	Fi-
.	.	.	.	.	.	.	.	.	.	4dd	-li-
.	.	1r	.	.	.	.	.	1g	qui	2ee	-o-
.	.	.	.	.	.	.	.	.	.	[2dd	-que
=186	=186	=186	=186	=186	=186	=186	=186	=186	=186	=186	=186
0r	.	0r	.	0r	.	0r	.	1a	ex	2dd]	.
.	.	.	.	.	.	.	.	.	.	2cc	pro-
.	.	.	.	.	.	.	.	2b-y	Pa-	2.dd	-ce-
.	.	.	.	.	.	.	.	2g	-tre	.	.
.	.	.	.	.	.	.	.	.	.	8ccL	.
.	.	.	.	.	.	.	.	.	.	8b-yJ	.
=187	=187	=187	=187	=187	=187	=187	=187	=187	=187	=187	=187
0r	.	0r	.	0r	.	2r	.	2.f	Fi-	1a	-dit.
.	.	.	.	.	.	2cc	Qui	.	.	.	.
.	.	.	.	.	.	.	.	4g	-li-	.	.
.	.	.	.	.	.	2cc	cum	2a	-o-	2r	.
.	.	.	.	.	.	2b-y	Pa-	[2g	-que	2dd	Qui
=188	=188	=188	=188	=188	=188	=188	=188	=188	=188	=188	=188
0r	.	0r	.	1r	.	2g	-tri	2g]	.	2ee	cum
.	.	.	.	.	.	2a	et	2f	pro-	2ff	.
.	.	.	.	2r	.	2.b-y	Fi-	2.g	-ce-	2dd	Pa-
.	.	.	.	2g	Qui	.	.	.	.	2ee	.
.	.	.	.	.	.	8aL	.	8fL	.	.	.
.	.	.	.	.	.	8gJ	.	8eJ	.	.	.
=189	=189	=189	=189	=189	=189	=189	=189	=189	=189	=189	=189
0r	.	0r	.	2f	cum	2a	.	1d	-dit.	1ff	-tre
.	.	.	.	2d	.	2a	-li-	.	.	.	.
.	.	.	.	2e	Pa-	2g	-o	2r	.	1gg	et
.	.	.	.	2e	-tre	2c	si-	2g	Qui	.	.
=190	=190	=190	=190	=190	=190	=190	=190	=190	=190	=190	=190
1r	.	0r	.	2d	et	2f	-mul	2a	cum	1ff	Fi-
.	.	.	.	2B-y	.	2d	a-	2b-y	.	.	.
2r	.	.	.	2.c	Fi-	2.e	-do-	2g	Pa-	1ee	-li-
2c	Qui	.	.	.	.	.	.	2a	.	.	.
.	.	.	.	4B-y	.	4f	.	.	.	.	.
=191	=191	=191	=191	=191	=191	=191	=191	=191	=191	=191	=191
2B-y	cum	1r	.	2G	.	1g	-ra-	1b-y	-tre	1dd	-o.
2G	.	.	.	1g	.	.	.	.	.	.	.
2A	Pa-	2r	.	.	.	1c	-tur,	1cc	et	1r	.
2A	-tre	2F	Qui	2f#i	-li-	.	.	.	.	.	.
=192	=192	=192	=192	=192	=192	=192	=192	=192	=192	=192	=192
2G	et	2B-y	cum	1g	-o	0r	.	1b-y	Fi-	0r	.
2E	.	2G	.	.	.	.	.	.	.	.	.
2.F	Fi-	2A	Pa-	2r	.	.	.	1a	-li-	.	.
.	.	2F	-tre	2d	si-	.	.	.	.	.	.
4E	.	.	.	.	.	.	.	.	.	.	.
=193	=193	=193	=193	=193	=193	=193	=193	=193	=193	=193	=193
2C	.	2G	et	1e	-mul	0r	.	1g	-o.	0r	.
1c	.	2E	Fi-	.	.	.	.	.	.	.	.
.	.	1D	-li-	2f	a-	.	.	1r	.	.	.
2BnXi	-li-	.	.	2d	-do-	.	.	.	.	.	.
=194	=194	=194	=194	=194	=194	=194	=194	=194	=194	=194	=194
1c	-o	2C	-o	4e	-ra-	0r	.	0r	.	0r	.
.	.	.	.	4f	.	.	.	.	.	.	.
.	.	2c	si-	4g	.	.	.	.	.	.	.
.	.	.	.	4e	.	.	.	.	.	.	.
2r	.	2A	-mul	2f	.	.	.	.	.	.	.
2G	si-	2B-y	a-	4e	.	.	.	.	.	.	.
.	.	.	.	4d	.	.	.	.	.	.	.
=195	=195	=195	=195	=195	=195	=195	=195	=195	=195	=195	=195
1A	-mul	1c	-do-	4c	.	0r	.	0r	.	0r	.
.	.	.	.	4d	.	.	.	.	.	.	.
.	.	.	.	4e	.	.	.	.	.	.	.
.	.	.	.	4c	.	.	.	.	.	.	.
2B-y	a-	2G	-ra-	1d	.	.	.	.	.	.	.
2G	-do-	2B-y	.	.	.	.	.	.	.	.	.
=196	=196	=196	=196	=196	=196	=196	=196	=196	=196	=196	=196
4A	-ra-	1F	-tur,	2c	-tur,	2r	.	0r	.	0r	.
4B-y	.	.	.	.	.	.	.	.	.	.	.
4c	.	.	.	2c	et	2a	et	.	.	.	.
4A	.	.	.	.	.	.	.	.	.	.	.
2B-y	.	1r	.	2d	con-	2f	con-	.	.	.	.
4A	.	.	.	2B-y	-glo-	2g	-glo-	.	.	.	.
4G	.	.	.	.	.	.	.	.	.	.	.
=197	=197	=197	=197	=197	=197	=197	=197	=197	=197	=197	=197
4F	.	0r	.	2c	-ri-	2a	-ri-	0r	.	0r	.
4G	.	.	.	.	.	.	.	.	.	.	.
4A	.	.	.	2A	-fi-	2f	-fi-	.	.	.	.
4F	.	.	.	.	.	.	.	.	.	.	.
1G	.	.	.	2.B-y	-ca-	2.d	-ca-	.	.	.	.
.	.	.	.	8AL	.	4e	.	.	.	.	.
.	.	.	.	8GJ	.	.	.	.	.	.	.
=198	=198	=198	=198	=198	=198	=198	=198	=198	=198	=198	=198
2F	-tur,	0r	.	2A	.	4f	.	0r	.	0r	.
.	.	.	.	.	.	4g	.	.	.	.	.
2F	et	.	.	2c	.	2.a	.	.	.	.	.
2G	con	.	.	1B-y	.	.	.	.	.	.	.
.	.	.	.	.	.	4g	.	.	.	.	.
2E	glo-	.	.	.	.	2g	.	.	.	.	.
=199	=199	=199	=199	=199	=199	=199	=199	=199	=199	=199	=199
2F	-ri-	0r	.	2A	-tur:	1a	-tur:	0r	.	0r	.
2D	-fi-	.	.	2f	qui	.	.	.	.	.	.
2.E	-ca-	.	.	2g	lo-	1r	.	.	.	.	.
.	.	.	.	2e	-cu-	.	.	.	.	.	.
8DL	.	.	.	.	.	.	.	.	.	.	.
8CJ	.	.	.	.	.	.	.	.	.	.	.
=200	=200	=200	=200	=200	=200	=200	=200	=200	=200	=200	=200
2D	.	0r	.	2f	-tus	0r	.	0r	.	1r	.
2F	.	.	.	1d	est	.	.	.	.	.	.
1E	.	.	.	.	.	.	.	.	.	2r	.
.	.	.	.	2c#i	per	.	.	.	.	2gg	Qui
=201	=201	=201	=201	=201	=201	=201	=201	=201	=201	=201	=201
2D	-tur:	0r	.	2.d	Pro-	0r	.	0r	.	2ff	lo-
2B-y	qui	.	.	.	.	.	.	.	.	2dd	.
.	.	.	.	4c	.	.	.	.	.	.	.
2c	lo-	.	.	2A	.	.	.	.	.	2ee	-cu-
2A	-cu-	.	.	2c	.	.	.	.	.	2ee	-tus
=202	=202	=202	=202	=202	=202	=202	=202	=202	=202	=202	=202
2B-y	-tus	0r	.	1B-y	-phe-	1d	qui	1r	.	2dd	est
1G	est	.	.	.	.	.	.	.	.	2b-y	per
.	.	.	.	1A	-tas.	2e	lo-	2r	.	2.cc	Pro-
2F	per	.	.	.	.	2f	-cu-	2cc	Qui	.	.
.	.	.	.	.	.	.	.	.	.	4b-y	.
=203	=203	=203	=203	=203	=203	=203	=203	=203	=203	=203	=203
2.G	Pro-	1d	Et	0r	.	4B-y	-tus	2b-y	lo-	2g	.
.	.	.	.	.	.	4c	.	.	.	.	.
.	.	.	.	.	.	4d	.	2g	.	2.gg	-phe-
4F	.	.	.	.	.	4e	.	.	.	.	.
2D	-phe-	1d	u-	.	.	2f	.	2a	-cu-	.	.
.	.	.	.	.	.	.	.	.	.	4ff#i	.
2F	.	.	.	.	.	[2d	est	2a	-tus	2ff#i	.
=204	=204	=204	=204	=204	=204	=204	=204	=204	=204	=204	=204
1E	.	1G	-nam	0r	.	2d]	.	2g	est	1gg	-tas.
.	.	.	.	.	.	2c	per	2e	per	.	.
1D	-tas.	2.A	san-	.	.	2d	Pro-	2.f	Pro-	2r	.
.	.	.	.	.	.	2f	.	.	.	2dd	Et
.	.	4B-y	.	.	.	.	.	4e	.	.	.
=205	=205	=205	=205	=205	=205	=205	=205	=205	=205	=205	=205
0r	.	2c	-ctam	0r	.	2e	-phe-	2c	.	1ee	u-
.	.	2c	ca-	.	.	1g	.	1cc	-phe-	.	.
.	.	2d	-tho-	.	.	.	.	.	.	2ff	-nam
.	.	2d	-li-	.	.	2f	.	2bnXi	.	2dd	san-
=206	=206	=206	=206	=206	=206	=206	=206	=206	=206	=206	=206
0r	.	1c	-cam	0r	.	2g	-tas.	1cc	-tas.	4ee	-ctam
.	.	.	.	.	.	.	.	.	.	4ff	.
.	.	.	.	.	.	2g	Et	.	.	4gg	.
.	.	.	.	.	.	.	.	.	.	4ee	.
.	.	1r	.	.	.	2a	u-	2r	.	2ff	ca-
.	.	.	.	.	.	2b-y	-nam	2g	Et	4ee	.
.	.	.	.	.	.	.	.	.	.	4dd	.
=207	=207	=207	=207	=207	=207	=207	=207	=207	=207	=207	=207
0r	.	0r	.	0r	.	1cc	san-	1a	u-	4cc	-tho-
.	.	.	.	.	.	.	.	.	.	4dd	.
.	.	.	.	.	.	.	.	.	.	4ee	.
.	.	.	.	.	.	.	.	.	.	4cc	.
.	.	.	.	.	.	2g	-ctam	2b-y	-nam	1dd	-li-
.	.	.	.	.	.	2b-y	ca-	2g	san-	.	.
=208	=208	=208	=208	=208	=208	=208	=208	=208	=208	=208	=208
0r	.	0r	.	0r	.	2f	-tho-	4a	-ctam	2cc	-cam
.	.	.	.	.	.	.	.	4b-y	.	.	.
.	.	.	.	.	.	2a	-li-	4cc	.	2cc	et
.	.	.	.	.	.	.	.	4a	.	.	.
.	.	.	.	.	.	1g	-cam,	2b-y	ca-	2dd	a-
.	.	.	.	.	.	.	.	4a	.	2b-y	-po-
.	.	.	.	.	.	.	.	4g	.	.	.
=209	=209	=209	=209	=209	=209	=209	=209	=209	=209	=209	=209
0r	.	0r	.	0r	.	1r	.	4f	-tho-	2cc	-sto-
.	.	.	.	.	.	.	.	4g	.	.	.
.	.	.	.	.	.	.	.	4a	.	2a	-li-
.	.	.	.	.	.	.	.	4f	.	.	.
.	.	.	.	.	.	2r	.	1g	-li-	2.b-y	-cam
.	.	.	.	.	.	2b-y	[ca-	.	.	.	.
.	.	.	.	.	.	.	.	.	.	8aL	.
.	.	.	.	.	.	.	.	.	.	8gJ	.
=210	=210	=210	=210	=210	=210	=210	=210	=210	=210	=210	=210
0r	.	1r	.	0r	.	2cc	-tho-	2f	-cam	2a	.
.	.	.	.	.	.	1a	.	2f	et	2cc	.
.	.	1G	et	.	.	.	.	2g	a-	1b-y	.
.	.	.	.	.	.	2g	-li-	2e	-po-	.	.
=211	=211	=211	=211	=211	=211	=211	=211	=211	=211	=211	=211
0r	.	1d	a-	0r	.	1a	-cam]	2f	-sto-	2a	.
.	.	.	.	.	.	.	.	2d	.	2ff	Ec-
.	.	1c	-po-	.	.	1r	.	2.e	.	2gg	-cle-
.	.	.	.	.	.	.	.	.	.	2ee	.
.	.	.	.	.	.	.	.	8dL	.	.	.
.	.	.	.	.	.	.	.	8cJ	.	.	.
=212	=212	=212	=212	=212	=212	=212	=212	=212	=212	=212	=212
0r	.	1B-y	-sto-	1r	.	0r	.	2d	.	2ff	.
.	.	.	.	.	.	.	.	2f	.	1dd	.
.	.	1c	-li-	1A	Con-	.	.	1e	-li-	.	.
.	.	.	.	.	.	.	.	.	.	2cc	.
=213	=213	=213	=213	=213	=213	=213	=213	=213	=213	=213	=213
0r	.	1G	-cam	1B-y	-fi-	0r	.	2d	-cam	2.dd	.
.	.	.	.	.	.	.	.	2b-y	Ec-	.	.
.	.	.	.	.	.	.	.	.	.	4cc	.
.	.	1A	Ec-	1F	-te-	.	.	2cc	-cle-	2a	.
.	.	.	.	.	.	.	.	2a	.	2cc	.
=214	=214	=214	=214	=214	=214	=214	=214	=214	=214	=214	=214
1r	.	1d	-cle-	1G	-or	0r	.	2b-y	.	1b-y	-si-
.	.	.	.	.	.	.	.	1g	.	.	.
1D	Con-	1d	-si-	1A	u-	.	.	.	.	1a	-am.
.	.	.	.	.	.	.	.	2f#i	.	.	.
=215	=215	=215	=215	=215	=215	=215	=215	=215	=215	=215	=215
1E	-fi-	1B-y	-am.	2.G	-num	0r	.	2.g	.	0r	.
.	.	.	.	4A	.	.	.	4f	.	.	.
1BB-y	-te-	2r	.	4B-y	.	.	.	2d	.	.	.
.	.	.	.	4c	.	.	.	.	.	.	.
.	.	2B-y	Con-	[2d	.	.	.	2f	.	.	.
=216	=216	=216	=216	=216	=216	=216	=216	=216	=216	=216	=216
1C	-or	2G	-fi-	2d]	.	2r	.	1e	-si-	0r	.
.	.	1A	-te-	2c	ba-	2c	Con-	.	.	.	.
1D	u-	.	.	1f	-pti-	2A	-fi-	1d	-am	.	.
.	.	4G	.	.	.	2B-y	-te-	.	.	.	.
.	.	4F	.	.	.	.	.	.	.	.	.
=217	=217	=217	=217	=217	=217	=217	=217	=217	=217	=217	=217
2.C	-num	0G	-or	1e	-sma	4c	-or	0r	.	0r	.
.	.	.	.	.	.	4d	.	.	.	.	.
.	.	.	.	.	.	4e	u-	.	.	.	.
4D	.	.	.	.	.	4f	.	.	.	.	.
4E	.	.	.	2r	.	4g	.	.	.	.	.
4F	.	.	.	.	.	4a	.	.	.	.	.
[2G	.	.	.	2d	in	[2b-y	-num	.	.	.	.
=218	=218	=218	=218	=218	=218	=218	=218	=218	=218	=218	=218
2G]	.	0r	.	2e	re-	4b-]	.	0r	.	0r	.
.	.	.	.	.	.	4a	ba-	.	.	.	.
2F	ba-	.	.	2f	-mis-	1a	-pti-	.	.	.	.
1B-y	-pti-	.	.	1d	-si-	.	.	.	.	.	.
.	.	.	.	.	.	2g	.	.	.	.	.
=219	=219	=219	=219	=219	=219	=219	=219	=219	=219	=219	=219
1A	-sma	2r	.	2c	-o-	1a	-sma	0r	.	0r	.
.	.	2C	u-	2e	.	.	.	.	.	.	.
2r	.	2D	-num	2f	.	1r	.	.	.	.	.
2G	in	2E	ba-	4e	.	.	.	.	.	.	.
.	.	.	.	4d	.	.	.	.	.	.	.
=220	=220	=220	=220	=220	=220	=220	=220	=220	=220	=220	=220
2A	re-	2F	-pti-	2c	.	1r	.	0r	.	0r	.
2B-y	-mis-	2BB-y	.	1f	.	.	.	.	.	.	.
1G	-si-	1C	-ma	.	.	2r	.	.	.	.	.
.	.	.	.	2e	.	2c	in	.	.	.	.
=221	=221	=221	=221	=221	=221	=221	=221	=221	=221	=221	=221
2D	-o-	1D	in	1f	.	2A	re-	0r	.	0r	.
2F	.	.	.	.	.	1d	-mis-	.	.	.	.
2G	.	2.BB-y	re-	[1d	-nem,	.	.	.	.	.	.
4F	.	.	.	.	.	4c	-si-	.	.	.	.
4E	.	4C	.	.	.	4B-y	.	.	.	.	.
=222	=222	=222	=222	=222	=222	=222	=222	=222	=222	=222	=222
2D	.	2D	-mis-	1d]	.	2A	-o-	0r	.	0r	.
1B-y	.	2BB-y	-si-	.	.	2B-y	.	.	.	.	.
.	.	1F	-o-	2r	.	1c	-nem	.	.	.	.
2A	.	.	.	2c	[in-	.	.	.	.	.	.
=223	=223	=223	=223	=223	=223	=223	=223	=223	=223	=223	=223
1B-y	.	1BB-y	-nem	2d	-re-	2B-y	pec-	0r	.	0r	.
.	.	.	.	1f	-mis-	1d	-ca-	.	.	.	.
[1G	-nem	2r	.	.	.	.	.	.	.	.	.
.	.	2C	pec-	2e	-si-	2c	.	.	.	.	.
=224	=224	=224	=224	=224	=224	=224	=224	=224	=224	=224	=224
1G]	.	2BB-y	-ca-	2d	-o-	2d	-to-	0r	.	1r	.
.	.	2C	.	4c	.	2e	.	.	.	.	.
.	.	.	.	4B-y	.	.	.	.	.	.	.
2r	.	1D	-to-	1A	-nem]	1f	.	.	.	1a	In
2F	pec-	.	.	.	.	.	.	.	.	.	.
=225	=225	=225	=225	=225	=225	=225	=225	=225	=225	=225	=225
2G	-ca-	1G	-rum,	2r	.	0d	.	0r	.	1b-y	re-
1B-y	-to-	.	.	2.d	pec-	.	.	.	.	.	.
.	.	1D	.	.	.	.	.	.	.	1f	-mis-
.	.	.	.	4e	.	.	.	.	.	.	.
2A	.	.	.	4f	.	.	.	.	.	.	.
.	.	.	.	4d	.	.	.	.	.	.	.
=226	=226	=226	=226	=226	=226	=226	=226	=226	=226	=226	=226
2G	.	0r	.	4e	-ca-	1B-y	-rum.	1r	.	1g	-si-
.	.	.	.	4d	.	.	.	.	.	.	.
4F	.	.	.	1g	-to-	.	.	.	.	.	.
4E	.	.	.	.	.	.	.	.	.	.	.
1D	-rum,	.	.	.	.	1r	.	1d	in	1a	-o-
.	.	.	.	2f	.	.	.	.	.	.	.
=227	=227	=227	=227	=227	=227	=227	=227	=227	=227	=227	=227
2r	.	1C	[pec-	1g	.	0r	.	1e	re-	2.g	-nem
2.G	[pec-	.	.	.	.	.	.	.	.	.	.
.	.	.	.	.	.	.	.	.	.	4a	.
.	.	1G	-ca-	1d	-rum.	.	.	1B-y	-mis-	4b-y	.
4A	.	.	.	.	.	.	.	.	.	4cc	.
4B-y	.	.	.	.	.	.	.	.	.	[2dd	pec-
4G	.	.	.	.	.	.	.	.	.	.	.
=228	=228	=228	=228	=228	=228	=228	=228	=228	=228	=228	=228
4A	-ca-	2.F	-to-	0r	.	0r	.	1c	-si-	2dd]	.
4G	.	.	.	.	.	.	.	.	.	.	.
1c	-to-	.	.	.	.	.	.	.	.	2cc	-ca-
.	.	4E	.	.	.	.	.	.	.	.	.
.	.	1D	-rum].	.	.	.	.	1d	-o-	1ff	-to-
2BnXi	.	.	.	.	.	.	.	.	.	.	.
=229	=229	=229	=229	=229	=229	=229	=229	=229	=229	=229	=229
1c	.	2r	.	0r	.	1.g	Et	2.c	-nem	1ee	-rum.
.	.	1c	Et	.	.	.	.	.	.	.	.
.	.	.	.	.	.	.	.	4d	.	.	.
1G	-rum.	.	.	.	.	.	.	4e	.	2r	.
.	.	.	.	.	.	.	.	4f	.	.	.
.	.	2B-y	ex-	.	.	2b-y	ex-	[2g	pec-	2dd	Et
=230	=230	=230	=230	=230	=230	=230	=230	=230	=230	=230	=230
0r	.	2c	-pe-	0r	.	1a	-pe-	2g]	.	2ee	ex-
.	.	2d	.	.	.	.	.	2f	-ca-	2ff	.
.	.	1G	-cto	.	.	1g	-cto	1b-y	-to-	1dd	-pe-
=231	=231	=231	=231	=231	=231	=231	=231	=231	=231	=231	=231
0r	.	0r	.	0r	.	2r	.	1a	-rum.	2cc	.
.	.	.	.	.	.	2c	re-	.	.	2ee	.
.	.	.	.	.	.	2d	-sur-	2r	.	2ff	.
.	.	.	.	.	.	2e	-re-	2g	Et	4ee	.
.	.	.	.	.	.	.	.	.	.	4dd	.
=232	=232	=232	=232	=232	=232	=232	=232	=232	=232	=232	=232
0r	.	0r	.	0r	.	2f	-cti-	2a	ex-	2cc	.
.	.	.	.	.	.	2d	-o-	2b-y	.	1ff	.
.	.	.	.	.	.	[1c	-nem	1g	-pe-	.	.
.	.	.	.	.	.	.	.	.	.	2ee	.
=233	=233	=233	=233	=233	=233	=233	=233	=233	=233	=233	=233
0r	.	1F	re-	0r	.	1c]	.	2f	.	1ff	.
.	.	.	.	.	.	.	.	2a	.	.	.
.	.	2.G	-sur-	.	.	2r	.	2b-y	.	[1dd	-cto
.	.	.	.	.	.	2B-y	mor-	4a	.	.	.
.	.	4A	.	.	.	.	.	4g	.	.	.
=234	=234	=234	=234	=234	=234	=234	=234	=234	=234	=234	=234
0r	.	1B-y	-re-	0r	.	2.d	-tu-	2f	.	1dd]	.
.	.	.	.	.	.	.	.	1b-y	.	.	.
.	.	.	.	.	.	4e	.	.	.	.	.
.	.	1F	-cti-	.	.	2.f	-o-	.	.	2r	.
.	.	.	.	.	.	.	.	2a	.	2cc	re-
.	.	.	.	.	.	4e	.	.	.	.	.
=235	=235	=235	=235	=235	=235	=235	=235	=235	=235	=235	=235
0r	.	2.B-y	-o-	0r	.	4d	.	1b-y	.	2dd	-sur-
.	.	.	.	.	.	4c	.	.	.	.	.
.	.	.	.	.	.	1d	.	.	.	1ff	-re-
.	.	4A	.	.	.	.	.	.	.	.	.
.	.	2B-y	.	.	.	.	.	[1g	-cto	.	.
.	.	2c	.	.	.	2c	.	.	.	2ee	-cti-
=236	=236	=236	=236	=236	=236	=236	=236	=236	=236	=236	=236
0r	.	2G	.	0r	.	2.B-y	-rum,	1g]	.	2dd	-o-
.	.	2B-y	.	.	.	.	.	.	.	4cc	.
.	.	.	.	.	.	8AL	.	.	.	4b-y	.
.	.	.	.	.	.	8GJ	.	.	.	.	.
.	.	2c	.	.	.	2F	.	2r	.	1a	-nem
.	.	2d	.	.	.	2a	[mor-	2f	re-	.	.
=237	=237	=237	=237	=237	=237	=237	=237	=237	=237	=237	=237
0r	.	1G	.	0r	.	2b-y	-tu-	2g	-sur-	2r	.
.	.	.	.	.	.	1g	-o-	1b-y	-re-	2.dd	mor-
.	.	1d	.	.	.	.	.	.	.	.	.
.	.	.	.	.	.	.	.	.	.	4ee	.
.	.	.	.	.	.	2f	.	2a	-cti-	4ff	.
.	.	.	.	.	.	.	.	.	.	4dd	.
=238	=238	=238	=238	=238	=238	=238	=238	=238	=238	=238	=238
0r	.	1G	-nem	0r	.	2b-y	.	2g	-o-	4ee	.
.	.	.	.	.	.	.	.	.	.	4dd	.
.	.	.	.	.	.	4a	.	4f	.	1gg	-tu-
.	.	.	.	.	.	4g	.	4e	.	.	.
.	.	2r	.	.	.	1a	.	1d	-nem	.	.
.	.	[2d	mor-	.	.	.	.	.	.	2ff#i	-o-
=239	=239	=239	=239	=239	=239	=239	=239	=239	=239	=239	=239
0r	.	4d]	.	0G	Et	1d	-rum].	2r	.	1gg	-rum.
.	.	4c	.	.	.	.	.	.	.	.	.
.	.	4B-y	.	.	.	.	.	2.g	mor-	.	.
.	.	4A	.	.	.	.	.	.	.	.	.
.	.	2B-y	.	.	.	2r	.	.	.	1dd	.
.	.	.	.	.	.	.	.	4a	.	.	.
.	.	2G	-tu-	.	.	2d	Et	4b-y	.	.	.
.	.	.	.	.	.	.	.	4g	.	.	.
=240	=240	=240	=240	=240	=240	=240	=240	=240	=240	=240	=240
0r	.	2F	-o-	1c	ex-	1f	ex-	4a	-tu-	0r	.
.	.	.	.	.	.	.	.	4g	.	.	.
.	.	2A	.	.	.	.	.	1cc	-o-	.	.
.	.	[1G	-rum,	1d	-pe-	1g	-pe-	.	.	.	.
.	.	.	.	.	.	.	.	2bnXi	.	.	.
=241	=241	=241	=241	=241	=241	=241	=241	=241	=241	=241	=241
0C	Et	1G]	.	1.c	-cto	0e	-cto	1cc	.	0r	.
.	.	[1c	[mor-	.	.	.	.	1g	-rum.	.	.
.	.	.	.	2G	re-	.	.	.	.	.	.
=242	=242	=242	=242	=242	=242	=242	=242	=242	=242	=242	=242
1F	ex-	2c]	.	1A	-sur-	2r	.	0r	.	0r	.
.	.	1d	-tu-	.	.	2f	re-	.	.	.	.
1G	-pe-	.	.	1B-y	-re-	2.d	-sur-	.	.	.	.
.	.	4c	.	.	.	.	.	.	.	.	.
.	.	4B-y	.	.	.	4e	.	.	.	.	.
=243	=243	=243	=243	=243	=243	=243	=243	=243	=243	=243	=243
1.F	-cto	2c	-o-	2A	-cti-	4f	.	0r	.	0r	.
.	.	.	.	.	.	4g	.	.	.	.	.
.	.	2A	.	2.c	-o-	2.a	.	.	.	.	.
.	.	2.c	.	.	.	.	.	.	.	.	.
.	.	.	.	4d	.	4g	.	.	.	.	.
2C	re-	.	.	[2e	.	[2g	-re-	.	.	.	.
.	.	4B-y	.	.	.	.	.	.	.	.	.
=244	=244	=244	=244	=244	=244	=244	=244	=244	=244	=244	=244
1D	-sur-	1A	.	4e]	.	2g]	.	0r	.	0r	.
.	.	.	.	4d	.	.	.	.	.	.	.
.	.	.	.	1d	-nem	2f#i	-cti-	.	.	.	.
1E	-re-	2.G	.	.	.	1g	-o-	.	.	.	.
.	.	.	.	2c	.	.	.	.	.	.	.
.	.	4A	.	.	.	.	.	.	.	.	.
=245	=245	=245	=245	=245	=245	=245	=245	=245	=245	=245	=245
2D	-cti-	2B-y	.	2.d	mor-	0f	.	0r	.	0r	.
2.F	-o-	1A	.	.	.	.	.	.	.	.	.
.	.	.	.	4c	.	.	.	.	.	.	.
.	.	.	.	2A	.	.	.	.	.	.	.
4G	.	.	.	.	.	.	.	.	.	.	.
[2A	.	2F	.	2c	-tu-	.	.	.	.	.	.
=246	=246	=246	=246	=246	=246	=246	=246	=246	=246	=246	=246
4A]	.	1G	.	1B-y	-o-	1d	-nem	0r	.	0r	.
4G	.	.	.	.	.	.	.	.	.	.	.
1G	-nem	.	.	.	.	.	.	.	.	.	.
.	.	1D	-rum,	1A	-rum,	2r	.	.	.	.	.
2F#i	.	.	.	.	.	[2d	mor-	.	.	.	.
=247	=247	=247	=247	=247	=247	=247	=247	=247	=247	=247	=247
2.G	mor-	1.d	mor-	2r	.	2d]	.	0r	.	0r	.
.	.	.	.	2.B-y	[mor-	4c	.	.	.	.	.
4F	.	.	.	.	.	4B-y	.	.	.	.	.
2D	.	.	.	.	.	1f	-tu-	.	.	.	.
.	.	.	.	4A	.	.	.	.	.	.	.
2F	-tu-	[2c	-tu-	[2A	-tu-	.	.	.	.	.	.
=248	=248	=248	=248	=248	=248	=248	=248	=248	=248	=248	=248
1E	-o-	4c]	.	4A]	.	2g	-o-	0r	.	0r	.
.	.	4B-y	.	4G	.	.	.	.	.	.	.
.	.	2G	.	1G	-o-	2c	.	.	.	.	.
1D	-rum,	2B-y	-o-	.	.	[1d	.	.	.	.	.
.	.	2A	.	2F	.	.	.	.	.	.	.
=249	=249	=249	=249	=249	=249	=249	=249	=249	=249	=249	=249
2r	.	2B-y	.	1G	-rum].	2d]	.	0r	.	0r	.
2.E	[mor-	1G	.	.	.	2c	.	.	.	.	.
.	.	.	.	1r	.	2.B-y	.	.	.	.	.
4D	.	.	.	.	.	.	.	.	.	.	.
[2D	-tu-	2F	.	.	.	.	.	.	.	.	.
.	.	.	.	.	.	4A	.	.	.	.	.
=250	=250	=250	=250	=250	=250	=250	=250	=250	=250	=250	=250
4D]	.	2G	.	1G	Et	2B-y	.	0r	.	0r	.
4C	.	.	.	.	.	.	.	.	.	.	.
1C	-o-	2E	.	.	.	2c	.	.	.	.	.
.	.	1D	-rum].	1d	vi-	1F	.	.	.	.	.
2BB-y	.	.	.	.	.	.	.	.	.	.	.
=251	=251	=251	=251	=251	=251	=251	=251	=251	=251	=251	=251
1C	-rum].	0r	.	2.e	-tam	2.c	-rum.	0r	.	0g	Et
.	.	.	.	4d	.	4d	.	.	.	.	.
1r	.	.	.	2c	.	2e	.	.	.	.	.
.	.	.	.	2B-y	ven-	2d	Et	.	.	.	.
=252	=252	=252	=252	=252	=252	=252	=252	=252	=252	=252	=252
1C	Et	1r	.	4A	-tu-	2.e	vi-	0r	.	1cc	vi-
.	.	.	.	4G	.	.	.	.	.	.	.
.	.	.	.	1c	.	.	.	.	.	.	.
.	.	.	.	.	.	4f	.	.	.	.	.
1G	vi-	2r	.	.	.	1d	.	.	.	1dd	-tam
.	.	2B-y	Et	2B-y	.	.	.	.	.	.	.
=253	=253	=253	=253	=253	=253	=253	=253	=253	=253	=253	=253
2.A	-tam	2F	vi-	1c	-ri	1f	-tam	0c	Et	1.cc	ven-
.	.	2.A	-tam	.	.	.	.	.	.	.	.
4G	.	.	.	.	.	.	.	.	.	.	.
2F	.	.	.	1r	.	1r	.	.	.	.	.
.	.	4B-y	.	.	.	.	.	.	.	.	.
2E	ven-	2c	.	.	.	.	.	.	.	2g	.
=254	=254	=254	=254	=254	=254	=254	=254	=254	=254	=254	=254
4D	-tu-	2F	.	0r	.	2r	.	1f	vi-	1a	-tu-
4C	.	.	.	.	.	.	.	.	.	.	.
1F	.	2A	ven-	.	.	2c	ven-	.	.	.	.
.	.	1G	-tu-	.	.	2d	-tu-	1g	.	1b-y	.
2E	.	.	.	.	.	2e	.	.	.	.	.
=255	=255	=255	=255	=255	=255	=255	=255	=255	=255	=255	=255
1F	-ri	0A	.	0r	.	0c	-ri	1.f	-tam	2a	-ri
.	.	.	.	.	.	.	.	.	.	2.cc	sae-
1r	.	.	.	.	.	.	.	.	.	.	.
.	.	.	.	.	.	.	.	.	.	4dd	.
.	.	.	.	.	.	.	.	2c	ven-	[2ee	.
=256	=256	=256	=256	=256	=256	=256	=256	=256	=256	=256	=256
0r	.	1B-y	.	1r	.	2.f	sae-	1d	-tu-	4ee]	.
.	.	.	.	.	.	.	.	.	.	4dd	.
.	.	.	.	.	.	.	.	.	.	1dd	.
.	.	.	.	.	.	4g	.	.	.	.	.
.	.	1c	-ri	1A	sae-	1a	.	1e	.	.	.
.	.	.	.	.	.	.	.	.	.	2cc	-cu-
=257	=257	=257	=257	=257	=257	=257	=257	=257	=257	=257	=257
0r	.	2.B-y	sae-	2B-y	.	0f	-cu-	2d	-ri	2.dd	-li.
.	.	.	.	2.d	.	.	.	2.f	sae-	.	.
.	.	4A	.	.	.	.	.	.	.	4cc	.
.	.	1F	.	.	.	.	.	.	.	2a	.
.	.	.	.	4c	.	.	.	4g	.	.	.
.	.	.	.	2A	.	.	.	[2a	.	2cc	.
=258	=258	=258	=258	=258	=258	=258	=258	=258	=258	=258	=258
1r	.	1G	.	2B-y	.	0d	-li.	4a]	.	1b-y	A-
.	.	.	.	.	.	.	.	4g	.	.	.
.	.	.	.	2G	-cu-	.	.	1g	.	.	.
1D	sae-	2D	.	1A	-li.	.	.	.	.	1a	-men,
.	.	2d	.	.	.	.	.	2f#i	-cu-	.	.
=259	=259	=259	=259	=259	=259	=259	=259	=259	=259	=259	=259
2E	-cu-	2c	.	1r	.	0r	.	2.g	-li.	2r	.
2.G	-li.	2.B-y	-cu-	.	.	.	.	.	.	2.b-y	[A-
.	.	.	.	.	.	.	.	4f	.	.	.
.	.	.	.	1d	A-	.	.	2d	.	.	.
4F	.	4c	.	.	.	.	.	.	.	4a	.
2D	.	2d	.	.	.	.	.	2f	A-	[2a	.
=260	=260	=260	=260	=260	=260	=260	=260	=260	=260	=260	=260
2E	A-	1G	-li.	2B-y	.	2r	.	1e	.	4a]	.
.	.	.	.	.	.	.	.	.	.	4g	.
2C	.	.	.	2c	.	2e	A-	.	.	1g	.
1D	.	2r	.	1A	.	2f	.	1d	.	.	.
.	.	2A	A-	.	.	[2d	.	.	.	2f#i	.
=261	=261	=261	=261	=261	=261	=261	=261	=261	=261	=261	=261
[0Gl	-men.	2B-y	.	[0Gl	-men.	4d]	.	[0dl	-men.	[0gl	-men].
.	.	.	.	.	.	4c	.	.	.	.	.
.	.	2G	.	.	.	4B-y	.	.	.	.	.
.	.	.	.	.	.	4A	.	.	.	.	.
.	.	1d	.	.	.	2B-y	.	.	.	.	.
.	.	.	.	.	.	2G	.	.	.	.	.
=262	=262	=262	=262	=262	=262	=262	=262	=262	=262	=262	=262
00G]	.	00B-yl	-men.	00G]	.	00dl	-men.	00d]	.	00g]	.
==	==	==	==	==	==	==	==	==	==	==	==
*-	*-	*-	*-	*-	*-	*-	*-	*-	*-	*-	*-
!!!system-decoration: [*]
!!!YEM: This work is licensed under a Creative Commons Attribution-NonCommercial 4.0 International License
!!!RDF**kern: i = editorial accidental
!!!RDF**kern: l = terminal long
!!!ENC: Vincent Besson, Marco Gurrieri, and Richard Freedman
!!!END: 2025/3/14
!!!EED: Benjamin Ory
!!!EEV: 2025/11/14
!!!YEC: Copyright 2025 Citations: The Renaissance Imitation Mass Project, All Rights Reserved
!!!ONB: Translated from MusicXML on 2025/3/14
!!!verovio: header encoded
!!!header-left: Edited by @{ENC} (2025)\n Citations: The Renaissance Imitation Mass Project \n
!!!header-right:
!!!header-center: